!!!!SEGMENT: pl-cz--iii-669--001-004_scigalski-franciszek--missa-in-b-quoniam.krn
!!!cenid: 18xx:1109
!!!COM: Ścigalski, Franciszek
!!!COM-rismID: pe30002948
!!!CDT: 1782/01/29-1846/09/27
!!!CNT: Polish
!!!OPR: Missa in B
!!!OTL: Quoniam
!!!OMV: 004
!!!PDT:
!!!AGN: Sacred; Mass
!!!SMS-siglum: PL-CZ
!!!SMS-shelfmark: III-669
!!!SMS-shelfwork: 001-004 M
!!!SMS-variant:
!!!SMS-altvar:
!!!NIFC-rismSourceID: 300001314
!!!NIFC-islandoraID: pl-cz:39833
!!!URL-pdf-islandora: https://repozytorium.nifc.pl/islandora/object/pl-cz%3A39833/datastream/PDF/view
!!!URL-scan:
!!!ONB-nifc: UWAGA: części Mszy: Kyrie, Gloria, Qui tollis, Quoniam, Credo, Et incarnatus,
!!!OMD: Allo molto
!!!AIN: 1 alto 1 bass 2 clars 2 cor 1 fagot 1 flt 1 organ 1 soprn 1 tenor 1 timpa 1 tromp 1 viola 2 violn
!!!key: B-
**kern	**fba	**dynam	**kern	**dynam	**kern	**dynam	**kern	**dynam	**kern	**text	**kern	**text	**kern	**text	**kern	**text	**kern	**kern	**kern	**dynam	**kern	**kern	**kern	**dynam	**kern	**dynam	**kern
*part16	*part16	*part16	*part15	*part15	*part14	*part14	*part13	*part13	*part12	*part12	*part11	*part11	*part10	*part10	*part9	*part9	*part8	*part7	*part6	*part6	*part5	*part4	*part3	*part3	*part2	*part2	*part1
*staff16	*staff16	*	*staff15	*	*staff14	*	*staff13	*	*staff12	*staff12	*staff11	*staff11	*staff10	*staff10	*staff9	*staff9	*staff8	*staff7	*staff6	*staff6	*staff5	*staff4	*staff3	*	*staff2	*	*staff1
*I"Organo	*	*	*I"Alto Viola	*	*I"Violino 2.do	*	*I"Violino. Primo.	*	*I"Baſso!	*	*I"Tenore	*	*I"Alto	*	*I"Canto	*	*I"Tympano in B.F.	*I"Claryino Prima	*I"Corno Sekundo in F	*	*I"Cornu Prymo in F	*I"Fagotto Oblgato	*I"Clarinetto 2do. in B	*	*I"Clarinetto 1mo in B	*	*I"Flauto Obligato.
*I'org	*	*	*I'vla	*	*I'vl 2	*	*I'vl 1	*	*I'B	*	*I'T	*	*I'A	*	*I'S	*	*I'timp in B|b and F	*I'clno princ	*I'cor 2	*	*I'cor 1	*I'fag obl	*I'cl 2	*	*I'cl 1	*	*I'fl obl
*Iorgan	*	*	*Iviola	*	*Ivioln	*	*Ivioln	*	*Ibass	*	*Itenor	*	*Ialto	*	*Isoprn	*	*Itimpa	*Itromp	*Icor	*	*Icor	*Ifagot	*Iclars	*	*Iclars	*	*Iflt
*ICklav	*	*	*ICstr	*	*ICstr	*	*ICstr	*	*ICvox	*	*ICvox	*	*ICvox	*	*ICvox	*	*ICidio	*ICbras	*ICbras	*	*ICbras	*ICww	*ICww	*	*ICww	*	*ICww
*clefF4	*	*	*clefC3	*	*clefG2	*	*clefG2	*	*clefF4	*	*clefC4	*	*clefC3	*	*clefC1	*	*clefF4	*clefG2	*clefG2	*	*clefG2	*clefF4	*clefG2	*	*clefG2	*	*clefG2
*	*	*	*	*	*	*	*	*	*	*	*	*	*	*	*	*	*ITrd1c2	*ITrd1c2	*ITrd1c2	*	*ITrd1c2	*	*ITrd1c2	*	*ITrd1c2	*	*
*	*	*	*	*	*	*	*	*	*	*	*	*	*	*	*	*	*	*	*	*	*	*ok[e-b-]	*	*	*	*	*
*k[b-e-]	*	*	*k[b-e-]	*	*k[b-e-]	*	*k[b-e-]	*	*k[b-e-]	*	*k[b-e-]	*	*k[b-e-]	*	*k[b-e-]	*	*k[b-e-]	*k[b-e-]	*k[b-e-]	*	*k[b-e-]	*k[b-e-]	*k[b-e-]	*	*k[b-e-]	*	*k[b-e-]
*B-:	*	*	*B-:	*	*B-:	*	*B-:	*	*B-:	*	*B-:	*	*B-:	*	*B-:	*	*B-:	*B-:	*B-:	*	*B-:	*B-:	*B-:	*	*B-:	*	*B-:
*M4/4	*	*	*M4/4	*	*M4/4	*	*M4/4	*	*M4/4	*	*M4/4	*	*M4/4	*	*M4/4	*	*M4/4	*M4/4	*M4/4	*	*M4/4	*M4/4	*M4/4	*	*M4/4	*	*M4/4
*met(c|)	*	*	*met(c)	*	*met(c)	*	*met(c)	*	*met(c|)	*	*met(c)	*	*met(c)	*	*met(c|)	*	*met(c|)	*met(c|)	*met(c)	*	*met(c|)	*met(c|)	*met(c)	*	*met(c)	*	*met(c|)
*all\right	*	*	*all\right	*	*all\right	*	*all\right	*	*all\right	*	*all\right	*	*all\right	*	*all\right	*	*all\right	*all\right	*all\right	*	*all\right	*all\right	*all\right	*	*all\right	*	*all\right
=1	=1	=1	=1	=1	=1	=1	=1	=1	=1	=1	=1	=1	=1	=1	=1	=1	=1	=1	=1	=1	=1	=1	=1	=1	=1	=1	=1
*tremolo	*	*	*tremolo	*	*tremolo	*	*2\right	*	*	*	*	*	*	*	*	*	*tremolo	*tremolo	*tremolo	*	*tremolo	*	*tremolo	*	*tremolo	*	*
*	*	*	*	*	*	*	*tremolo	*	*	*	*	*	*	*	*	*	*	*2\right	*	*	*2\right	*	*	*	*2\right	*	*
!LO:TX:a:t=Allo Molto.	!	!	!LO:TX:a:t=Quoniam	!	!LO:TX:a:t=Quoniam	!	!LO:TX:a:t=Quoniam	!	!	!	!	!	!	!	!LO:TX:a:t=1.	!	!LO:TX:a:t=Allo Molto.	!LO:TX:t=....	!	!	!LO:TX:t=....	!LO:TX:a:t=Quoniam	!	!LO:DY:b:t=fo.:rj	!LO:TX:t=....	!	!LO:TX:a:t=Allo. Molto.
!LO:TX:a:t=Quoniam	!	!	!LO:TX:a:t=Allo&colon; Molto.	!	!LO:TX:a:t=Allo. Molto	!	!LO:TX:a:t=Alo&colon;molto.	!	!LO:TX:a:t=1.	!	!	!	!	!	!LO:TX:a:t=Quoniam	!	!LO:TX:a:t=Quoniam	!LO:TX:a:t=Quoniam	!LO:TX:a:t=Quoniam	!	!LO:TX:a:t=Quoniam	!LO:TX:a:t=Allo&colon; Molto&colon;	!LO:TX:a:t=Alo Molto	!	!LO:TX:a:t=Allo Molto.	!	!LO:TX:a:t=Quoniam
!	!	!	!	!LO:DY:b:t=f&colon;:rj	!LO:TX:b:t=....	!LO:DY:b:rj	!	!LO:DY:b:t=fr&colon;:rj	!LO:TX:a:t=Allo molto	!	!LO:TX:a:t=1	!	!LO:TX:a:t=Allo&colon; molto	!	!LO:TX:a:t=Allo molto	!	!LO:TX:b:t=....	!LO:TX:a:t=allo molto	!LO:TX:a:t=Allo mlto in B	!	!LO:TX:a:t=Allo molto in B	!LO:TX:t=P:problem=mixed beam	!LO:TX:a:t=Quoniam	!	!LO:TX:a:t=Quoniam	!LO:DY:b:t=for&colon;	!LO:TX:t=P:problem=mixed beam
8BB-'/L	.	.	8B-/L	f	8G'/L	f	8b-\L	f	1r	.	1r	.	1r	.	1r	.	8Ra'/L	8b-'\L	8B-/L	.	8b-'\L	8B-\L	8B-/L	f	8b-'\L	f	8bb-\L
8BB-'/	.	.	8B-/	.	8G'/	.	8b-\	.	.	.	.	.	.	.	.	.	8Ra'/	8b-'\	8B-/	.	8b-'\	8BB-/	8B-/	.	8b-'\	.	8b-/
8BB-'/	.	.	8B-/	.	8G'/	.	8b-\	.	.	.	.	.	.	.	.	.	8Ra'/	8b-'\	8B-/	.	8b-'\	8BB-/	8B-/	.	8b-'\	.	8b-/
8BB-'/J	.	.	8B-/J	.	8G'/J	.	8b-\J	.	.	.	.	.	.	.	.	.	8Ra'/J	8b-'\J	8B-/J	.	8b-'\J	8BB-/J	8B-/J	.	8b-'\J	.	8b-/J
*Xtremolo	*	*	*Xtremolo	*	*Xtremolo	*	*Xtremolo	*	*	*	*	*	*	*	*	*	*Xtremolo	*Xtremolo	*Xtremolo	*	*Xtremolo	*	*Xtremolo	*	*Xtremolo	*	*
8BB-'/L	.	.	8B-/L	.	8B-/L	.	8b-\L	.	.	.	.	.	.	.	.	.	4Ra/	4b-\	4B-/	.	4b-\	4BB-/	4B-/	.	4b-\	.	4b-\
16C'/L	.	.	16c/L	.	16c/L	.	16cc\L	.	.	.	.	.	.	.	.	.	.	.	.	.	.	.	.	.	.	.	.
16D'/JJ	.	.	16d/JJ	.	16d/JJ	.	16dd\JJ	.	.	.	.	.	.	.	.	.	.	.	.	.	.	.	.	.	.	.	.
16E-'\LL	.	.	16e-\LL	.	16e-/LL	.	16ee-\LL	.	.	.	.	.	.	.	.	.	4r	4r	4r	.	4r	4r	4r	.	4r	.	4r
16F'\	.	.	16f\	.	16f/	.	16ff\	.	.	.	.	.	.	.	.	.	.	.	.	.	.	.	.	.	.	.	.
16G'\	.	.	16g\	.	16g/	.	16gg\	.	.	.	.	.	.	.	.	.	.	.	.	.	.	.	.	.	.	.	.
16A'\JJ	.	.	16a\JJ	.	16a/JJ	.	16aa\JJ	.	.	.	.	.	.	.	.	.	.	.	.	.	.	.	.	.	.	.	.
=2	=2	=2	=2	=2	=2	=2	=2	=2	=2	=2	=2	=2	=2	=2	=2	=2	=2	=2	=2	=2	=2	=2	=2	=2	=2	=2	=2
4B-\	3	.	4r	.	4r	.	16bb-\LL	.	4.B-\	Quo-	4.B-\	Quo-	4.f\	Quo-	4.dd\	Quo-	4r	4r	4b-\	.	4dd\	4d\	4f/	.	4dd\	.	4ddd\
.	.	.	.	.	.	.	16ccc\J	.	.	.	.	.	.	.	.	.	.	.	.	.	.	.	.	.	.	.	.
.	.	.	.	.	.	.	8ddd\J	.	.	.	.	.	.	.	.	.	.	.	.	.	.	.	.	.	.	.	.
4r	.	.	4f\	.	4B-/ 4f 4dd	.	16bb-\LL	.	.	.	.	.	.	.	.	.	4Ra/	4b-\	8b-\L	.	8dd\L	8d\L	8f/L	.	8dd\L	.	8ddd\L
.	.	.	.	.	.	.	16ccc\J	.	.	.	.	.	.	.	.	.	.	.	.	.	.	.	.	.	.	.	.
.	.	.	.	.	.	.	8ddd\J	.	8B-\	-ni-	8B-\	-ni-	8f\	-ni-	8dd\	-ni-	.	.	8b-\J	.	8dd\J	8d\J	8f/J	.	8dd\J	.	8ddd\J
4F\	5	.	4r	.	4r	.	16ff\LL	.	4F\	-am	4f\	-am	4.e-\	-am	4cc\	-am	4r	4r	4f/	.	4cc\	4c\	4e-/	.	4cc\	.	4ccc\
.	.	.	.	.	.	.	16gg\J	.	.	.	.	.	.	.	.	.	.	.	.	.	.	.	.	.	.	.	.
.	.	.	.	.	.	.	8aa\J	.	.	.	.	.	.	.	.	.	.	.	.	.	.	.	.	.	.	.	.
4r	.	.	4f\	.	4A/ 4f 4cc	.	16ff\LL	.	4F\	tu	4f\	tu	.	.	4cc\	tu	4Re/	4f/	8f/L	.	8cc\L	8c\L	8e-/L	.	8cc\L	.	8ccc\L
.	.	.	.	.	.	.	16gg\J	.	.	.	.	.	.	.	.	.	.	.	.	.	.	.	.	.	.	.	.
.	.	.	.	.	.	.	8aa\J	.	.	.	.	.	8e-\	tu	.	.	.	.	8f/J	.	8cc\J	8c\J	8e-/J	.	8cc\J	.	8ccc\J
!	!	!	!	!	!	!	!LO:LB:g=original	!	!LO:LB:g=original	!	!	!	!	!	!	!	!	!	!	!	!	!	!	!	!	!	!
=3	=3	=3	=3	=3	=3	=3	=3	=3	=3	=3	=3	=3	=3	=3	=3	=3	=3	=3	=3	=3	=3	=3	=3	=3	=3	=3	=3
*tremolo	*	*	*tremolo	*	*	*	*	*	*	*	*2\right	*	*2\right	*	*2\right	*	*tremolo	*tremolo	*	*	*tremolo	*	*	*	*tremolo	*	*
!	!	!	!	!	!	!	!	!	!	!	!	!	!	!	!	!	!	!LO:TX:t=P:problem=t. 3-4 zapisane jako repetycja	!	!	!	!	!	!	!	!	!
!LO:TX:b:t=....	!	!	!	!	!LO:TX:t=P:problem=mixed beam	!	!LO:TX:t=P:problem=mixed beam	!	!	!	!	!	!	!	!	!	!LO:TX:b:t=....	!LO:TX:t=....	!	!	!LO:TX:t=....	!LO:TX:t=P:problem=mixed beam	!	!	!LO:TX:t=....	!	!LO:TX:t=P:problem=mixed beam
8BB-'/L	.	.	8B-/L	.	8b-\L	.	8bb-\L	.	2BB-/	so-	2B-\	so-	2d\	so-	2b-\	So-	8Ra'/L	8b-'\L	8d/L	.	8b-'\L	8B-\L	8d/L	.	8b-'\L	.	8bb-\L
8BB-'/	.	.	8B-/	.	8B-/	.	8b-/	.	.	.	.	.	.	.	.	.	8Ra'/	8b-'\	8B-/	.	8b-'\	8BB-/	8B-/	.	8b-'\	.	8b-/
8BB-'/	.	.	8B-/	.	8B-/	.	8b-/	.	.	.	.	.	.	.	.	.	8Ra'/	8b-'\	8B-/	.	8b-'\	8BB-/	8B-/	.	8b-'\	.	8b-/
8BB-'/J	.	.	8B-/J	.	8B-/J	.	8b-/J	.	.	.	.	.	.	.	.	.	8Ra'/J	8b-'\J	8B-/J	.	8b-'\J	8BB-/J	8B-/J	.	8b-'\J	.	8b-/J
*Xtremolo	*	*	*Xtremolo	*	*	*	*	*	*	*	*	*	*	*	*	*	*Xtremolo	*Xtremolo	*	*	*Xtremolo	*	*	*	*Xtremolo	*	*
!	!	!	!	!	!LO:LB:g=original	!	!	!	!	!	!	!	!	!	!	!	!	!	!	!	!	!	!LO:LB:g=original	!	!	!	!
=-	=-	=-	=-	=-	=-	=-	=-	=-	=-	=-	=-	=-	=-	=-	=-	=-	=-	=-	=-	=-	=-	=-	=-	=-	=-	=-	=-
8BB-'/L	.	.	8B-/L	.	8B-/L	.	8b-\L	.	4BB-/	-lus	4B-\	-lus	4d\	-lus	4b-\	-lus	4Ra/	4b-\	4B-/	.	4b-\	4BB-/	4B-/	.	4b-\	.	4b-/
16C'/L	.	.	16c/L	.	16c/L	.	16cc\L	.	.	.	.	.	.	.	.	.	.	.	.	.	.	.	.	.	.	.	.
16D'/JJ	.	.	16d/JJ	.	16d/JJ	.	16dd\JJ	.	.	.	.	.	.	.	.	.	.	.	.	.	.	.	.	.	.	.	.
16E-'\LL	.	.	16e-\LL	.	16e-/LL	.	16ee-\LL	.	4r	.	4r	.	4r	.	4r	.	4r	4r	4r	.	4r	4r	4r	.	4r	.	4r
16F'\	.	.	16f\	.	16f/	.	16ff\	.	.	.	.	.	.	.	.	.	.	.	.	.	.	.	.	.	.	.	.
16G'\	.	.	16g\	.	16g/	.	16gg\	.	.	.	.	.	.	.	.	.	.	.	.	.	.	.	.	.	.	.	.
16A'\JJ	.	.	16a\JJ	.	16a/JJ	.	16aa\JJ	.	.	.	.	.	.	.	.	.	.	.	.	.	.	.	.	.	.	.	.
!	!	!	!LO:LB:g=original	!	!	!	!	!	!	!	!	!	!	!	!	!	!	!	!	!	!	!LO:LB:g=original	!	!	!	!	!
=4	=4	=4	=4	=4	=4	=4	=4	=4	=4	=4	=4	=4	=4	=4	=4	=4	=4	=4	=4	=4	=4	=4	=4	=4	=4	=4	=4
4B-\	3	.	4r	.	4r	.	16bb-\LL	.	4.B-\	tu	4.B-\	tu	4.f\	tu	4.dd\	tu	4r	4r	4b-\	.	4dd\	4d\	4f/	.	4dd\	.	4ddd\
.	.	.	.	.	.	.	16ccc\J	.	.	.	.	.	.	.	.	.	.	.	.	.	.	.	.	.	.	.	.
.	.	.	.	.	.	.	8ddd\J	.	.	.	.	.	.	.	.	.	.	.	.	.	.	.	.	.	.	.	.
4r	.	.	4f\	.	4B-/ 4f 4dd	.	16bb-\LL	.	.	.	.	.	.	.	.	.	4Ra/	4b-\	8b-\L	.	8dd\L	8d\L	8f/L	.	8dd\L	.	8ddd\L
.	.	.	.	.	.	.	16ccc\J	.	.	.	.	.	.	.	.	.	.	.	.	.	.	.	.	.	.	.	.
.	.	.	.	.	.	.	8ddd\J	.	8B-\	so-	8B-\	so-	8f\	so-	8dd\	so-	.	.	8b-\J	.	8dd\J	8d\J	8f/J	.	8dd\J	.	8ddd\J
4F\	5	.	4r	.	4r	.	16ff\LL	.	4F\	-lus	4f\	-lus	4e-\	-lus	4cc\	-lus	4r	4r	4f/	.	4cc\	4c\	4e-/	.	4cc\	.	4ccc\
.	.	.	.	.	.	.	16gg\J	.	.	.	.	.	.	.	.	.	.	.	.	.	.	.	.	.	.	.	.
.	.	.	.	.	.	.	8aa\J	.	.	.	.	.	.	.	.	.	.	.	.	.	.	.	.	.	.	.	.
4r	.	.	4f\	.	4A/ 4f 4cc	.	16ff\LL	.	4F\	San-	4f\	San-	4e-\	san-	4cc\	san-	4Re/	4f/	8f/L	.	8cc\L	8c\L	8e-/L	.	8cc\L	.	8ccc\L
.	.	.	.	.	.	.	16gg\J	.	.	.	.	.	.	.	.	.	.	.	.	.	.	.	.	.	.	.	.
.	.	.	.	.	.	.	8aa\J	.	.	.	.	.	.	.	.	.	.	.	8f/J	.	8cc\J	8c\J	8e-/J	.	8cc\J	.	8ccc\J
!LO:LB:g=original	!	!	!	!	!	!	!	!	!	!	!	!	!	!	!	!	!	!	!	!	!	!	!	!	!	!	!LO:LB:g=original
=5	=5	=5	=5	=5	=5	=5	=5	=5	=5	=5	=5	=5	=5	=5	=5	=5	=5	=5	=5	=5	=5	=5	=5	=5	=5	=5	=5
4BB-/	8	.	4B-/	.	4B-/ 4f 4b-	.	4bb-\	.	4BB-/	-ctus	4B-\	-ctus	4d\	-ctus	4b-\	-ctus	4Ra/	4B-/	4d/	.	4b-\	4B-\	4d/	.	4b-\	.	4bb-\
4r	.	.	4r	.	4r	.	4r	.	4r	.	4r	.	4r	.	4r	.	4r	4r	4r	.	4r	4r	4r	.	4r	.	4r
4B-'\	.	.	4b-\	.	4b-\	.	4bb-\	.	4B-\	quo-	4B-\	Quo-	4b-\	quo-	4b-\	quo-	4Ra/	4b-\	4B-/	.	4b-\	4B-\	4b-\	.	4bb-\	.	4bb-\
4B-'\	.	.	4b-\	.	4b-\	.	4bb-\	.	4B-\	-ni	4B-\	-ni-	4b-\	-ni-	4b-\	-ni-	4Ra/	4b-\	4B-/	.	4b-\	4B-\	4b-\	.	4bb-\	.	4bb-\
!	!	!	!	!	!	!	!	!	!	!	!LO:LB:g=original	!	!	!	!	!	!	!	!LO:LB:g=original	!	!LO:LB:g=original	!	!	!	!	!	!
=6	=6	=6	=6	=6	=6	=6	=6	=6	=6	=6	=6	=6	=6	=6	=6	=6	=6	=6	=6	=6	=6	=6	=6	=6	=6	=6	=6
!	!	!	!	!	!	!	!	!	!	!	!	!	!	!	!	!	!LO:TX:a:t=1.	!	!LO:N:vis=4	!	!	!	!	!	!	!	!
4.d'\	.	.	4.dd\	.	4.dd\	.	4.ddd\	.	4.d\	a(m)	4.d\	-am	4.dd\	-am	4.dd\	-am	1r	4.dd\	4.d/	.	4.dd\	4.d\	4.dd\	.	4.ddd\	.	4.ddd\
8c'\	.	.	8cc\	.	8cc\	.	8ccc\	.	8c\	tu	8c\	tu	8cc\	tu	8cc\	tu	.	8r	8r	.	8r	8c\	8cc\	.	8ccc\	.	8ccc\
!	!	!	!	!	!	!	!	!	!	!	!	!	!LO:LB:g=original	!	!	!	!	!	!	!	!	!	!	!	!	!	!
=-	=-	=-	=-	=-	=-	=-	=-	=-	=-	=-	=-	=-	=-	=-	=-	=-	=-	=-	=-	=-	=-	=-	=-	=-	=-	=-	=-
8B-'\L	.	.	8b-\L	.	8b-/L	.	8bb-\L	.	(8B-\L	So-	8B-\L	so-	8b-\L	So-	8b-\L	so-	.	2r	4r	.	4r	8B-\L	8b-\L	.	8bb-\L	.	8bb-\L
8A'\	.	.	8a\	.	8a/	.	8aa\	.	8A\J)	.	8A\J	.	8a\J	.	8a\J	.	.	.	.	.	.	8A\	8a\	.	8aa\	.	8aa\
8G'\	.	.	8g\	.	8g/	.	8gg\	.	(8G\L	-lus	8G/L	-lus	8g\L	-lus	8g/L	-lus	.	.	4r	.	4r	8G\	8g\	.	8gg\	.	8gg\
!	!	!	!	!	!	!	!	!	!	!	!	!	!	!	!	!	!	!	!	!	!	!	!LO:TX:a:t=bis	!	!	!	!
8F'\J	.	.	8f\J	.	8f/J	.	8ff\J	.	8F\J)	.	8F/J	.	8f\J	.	8f/J	.	.	.	.	.	.	8F\J	8f\J	.	8ff\J	.	8ff\J
!	!	!	!	!	!	!	!LO:PB:g=original	!	!	!	!	!	!	!	!LO:LB:g=original	!	!LO:LB:g=original	!	!	!	!	!	!	!	!LO:LB:g=original	!	!
=7	=7	=7	=7	=7	=7	=7	=7	=7	=7	=7	=7	=7	=7	=7	=7	=7	=7	=7	=7	=7	=7	=7	=7	=7	=7	=7	=7
8E-'/L	.	.	8e-\L	.	8e-/L	.	8ee-\L	.	8E-\L	Do-	8E-/L	Do-	8e-\L	Do-	8e-/L	do-	2r	2r	2r	.	4r	8E-\L	8e-/L	.	8ee-\L	.	8ee-\L
8D'/	.	.	8d\	.	8d/	.	8dd\	.	8D\J	.	8D/J	.	8d\J	.	8d/	.	.	.	.	.	.	8D\	8d/	.	8dd\	.	8dd\
8C'/	.	.	8c\	.	8c/	.	8cc\	.	8C/L	-mi-	8C/L	-mi-	8c\L	-mi-	8c/	-mi-	.	.	.	.	4r	8C\	8c/	.	8cc\	.	8cc\
8BB-'/J	.	.	8B-\J	.	8B-/J	.	8b-\J	.	8BB-/J	.	8BB-/J	.	8B-\J	.	8B-/J	-nus	.	.	.	.	.	8BB-\J	8B-/J	.	8b-\J	.	8b-\J
4FF/	.	.	4F/	.	4A/	.	4a/	.	4FF/	-nus	4F/	-nus	4f\	-nus	4f/	tu	4r	4r	4r	.	4r	4FF/	4A/	.	4a\	.	4a\
4F\	5	.	4f\	.	4A/ 4f 4cc	.	4f\ 4cc 4aa	.	4F\	tu	4c\	tu	4e-\	tu	4cc\	so-	4Re/	4f/	4f/	.	4cc\	4F\	4a\	.	4cc\	.	4ccc\
!	!	!	!	!	!LO:LB:g=original	!	!	!	!LO:LB:g=original	!	!	!	!	!	!	!	!	!	!	!	!	!	!	!	!	!	!
=8	=8	=8	=8	=8	=8	=8	=8	=8	=8	=8	=8	=8	=8	=8	=8	=8	=8	=8	=8	=8	=8	=8	=8	=8	=8	=8	=8
!	!	!	!LO:TX:t=P:problem=brak t. 8	!	!	!	!	!	!	!	!	!	!	!	!	!	!	!	!	!	!	!	!	!	!	!	!
4B-\	3	.	1ryy	.	16b-\LL	.	4r	.	4B-\	so-	4B-\	so-	4f\	so-	4dd\	-lus	4r	4r	4b-\	.	4dd\	4d\	4b-\	.	4dd\	.	4ddd\
.	.	.	.	.	16cc\J	.	.	.	.	.	.	.	.	.	.	.	.	.	.	.	.	.	.	.	.	.	.
.	.	.	.	.	8dd\J	.	.	.	.	.	.	.	.	.	.	.	.	.	.	.	.	.	.	.	.	.	.
4r	.	.	.	.	16b-\LL	.	4f\ 4dd 4bb-	.	8B-\	-lus	8B-\	-lus	8f\	-lus	8dd\L	al-	4Ra/	4b-\	8b-\L	.	8dd\L	8d\L	8b-\L	.	8dd\L	.	8ddd\L
.	.	.	.	.	16cc\J	.	.	.	.	.	.	.	.	.	.	.	.	.	.	.	.	.	.	.	.	.	.
.	.	.	.	.	8dd\J	.	.	.	8B-\	al-	8B-\	al-	8f\	al-	8dd\J	-tis-	.	.	8b-\J	.	8dd\J	8d\J	8b-\J	.	8dd\J	.	8ddd\J
4F\	5	.	.	.	16f/LL	.	4r	.	4F\	-tiſ-	4f\	-tis-	4e-\	-tis-	4cc\	-ſi-	4r	4r	4f/	.	4cc\	4c\	4a\	.	4cc\	.	4ccc\
.	.	.	.	.	16g/J	.	.	.	.	.	.	.	.	.	.	.	.	.	.	.	.	.	.	.	.	.	.
.	.	.	.	.	8a/J	.	.	.	.	.	.	.	.	.	.	.	.	.	.	.	.	.	.	.	.	.	.
4r	.	.	.	.	16f/LL	.	4f\ 4cc 4aa	.	4F\	-si-	4f\	-ſi-	4e-\	-ſi-	4cc\	.	4Re/	4f/	8f/L	.	8cc\L	8c\L	8a\L	.	8cc\L	.	8ccc\L
.	.	.	.	.	16g/J	.	.	.	.	.	.	.	.	.	.	.	.	.	.	.	.	.	.	.	.	.	.
.	.	.	.	.	8a/J	.	.	.	.	.	.	.	.	.	.	.	.	.	8f/J	.	8cc\J	8c\J	8a\J	.	8cc\J	.	8ccc\J
!	!	!	!	!	!	!	!	!	!	!	!	!	!	!	!	!	!	!LO:LB:g=original	!	!	!	!LO:LB:g=original	!LO:LB:g=original	!	!	!	!
=9	=9	=9	=9	=9	=9	=9	=9	=9	=9	=9	=9	=9	=9	=9	=9	=9	=9	=9	=9	=9	=9	=9	=9	=9	=9	=9	=9
!	!	!	!LO:TX:t=P:problem=t. 9-11 zapisane jako repetycja	!	!	!	!LO:TX:t=P:problem=repetycja 4 taktów zaznaczona ołówkiem	!	!	!	!	!	!	!	!	!	!	!	!	!	!	!	!LO:TX:t=P:problem=t. 9-12 zapisane jako repetycja	!	!	!	!LO:TX:t=P:problem=t. 9-12 zapisane jako repetycja
4BB-/	.	.	4B-/	.	4B-/ 4f 4b-	.	1ryy	.	4BB-/	-mus	4B-\	-mus	4d\	-mus	4b-\	-mus	4Ra/	4B-/	4d/	.	4b-\	4B-\	4d/	.	4b-\	.	4bb-\
4r	.	.	4r	.	4r	.	.	.	4r	.	4r	.	4r	.	4r	.	4r	4r	4r	.	4r	4r	4r	.	4r	.	4r
4B-\	.	.	4b-\	.	4b-\	.	.	.	4B-\	quo-	4B-\	Quo-	4b-\	Quo-	4b-\	quo-	4Ra/	4b-\	4B-/	.	4b-\	4B-\	4b-\	.	4bb-\	.	4bb-\
4B-\	.	.	4b-\	.	4b-\	.	.	.	4B-\	-ni-	4B-\	-ni-	4b-\	-ni-	4b-\	-ni-	4Ra/	4b-\	4B-/	.	4b-\	4B-\	4b-\	.	4bb-\	.	4bb-\
=10	=10	=10	=10	=10	=10	=10	=10	=10	=10	=10	=10	=10	=10	=10	=10	=10	=10	=10	=10	=10	=10	=10	=10	=10	=10	=10	=10
!	!	!	!	!	!	!	!	!	!	!	!LO:TX:t=P:problem=kropka z lewej strony nuty	!	!	!	!	!	!LO:TX:a:t=1.	!	!LO:N:vis=4	!	!	!	!	!	!	!	!
4.d'\	.	.	4.dd\	.	4.dd\	.	1ryy	.	4.d\	-am	4.d\	-am	4.dd\	-am	4.dd\	-am	1r	4.dd\	4.d/	.	4.dd\	4.d\	4.dd\	.	4.ddd\	.	4.ddd\
.	.	.	.	.	.	.	.	.	.	.	.	.	.	.	.	.	.	.	.	.	.	.	.	.	.	.	.
.	.	.	.	.	.	.	.	.	.	.	.	.	.	.	.	.	.	.	.	.	.	.	.	.	.	.	.
8c'\	.	.	8cc\	.	8cc\	.	.	.	8c\	tu	8c\	tu	8cc\	tu	8cc\	tu	.	8r	8r	.	8r	8c\	8cc\	.	8ccc\	.	8ccc\
8B-'\L	.	.	8b-\L	.	8b-\L	.	.	.	8B-\L	So-	8B-\L	so-	8b-\L	so-	8b-\L	so-	.	2r	4r	.	4r	8B-\L	8b-\L	.	8bb-\L	.	8bb-\L
8A'\	.	.	8a\	.	8a\	.	.	.	8A\J	.	8A\J	.	8a\J	.	8a\	.	.	.	.	.	.	8A\	8a\	.	8aa\	.	8aa\
8G'\	.	.	8g\	.	8g\	.	.	.	8G\L	-lus	8G/L	-lus	8g\L	-lus	8g\	-lus	.	.	4r	.	4r	8G\	8g\	.	8gg\	.	8gg\
8F'\J	.	.	8f\J	.	8f\J	.	.	.	8F\J	.	8F/J	.	8f\J	.	8f\J	.	.	.	.	.	.	8F\J	8f\J	.	8ff\J	.	8ff\J
!LO:LB:g=original	!	!	!	!	!	!	!	!	!	!	!	!	!	!	!	!	!	!	!	!	!	!	!	!	!	!	!
=11	=11	=11	=11	=11	=11	=11	=11	=11	=11	=11	=11	=11	=11	=11	=11	=11	=11	=11	=11	=11	=11	=11	=11	=11	=11	=11	=11
8E-'/L	.	.	8e-\L	.	8e-/L	.	1ryy	.	8E-\L	Do-	8E-/L	Do-	8e-\L	Do-	8e-/L	do-	2r	2r	2r	.	4r	8E-\L	8e-/L	.	8ee-\L	.	8ee-\L
8D'/	.	.	8d\	.	8d/	.	.	.	8D\J	.	8D/J	.	8d\J	.	8d/	.	.	.	.	.	.	8D\	8d/	.	8dd\	.	8dd\
8C'/	.	.	8c\	.	8c/	.	.	.	8C/L	-mi-	8C/L	-mi-	8c\L	-mi-	8c/	-mi-	.	.	.	.	4r	8C\	8c/	.	8cc\	.	8cc\
8BB-'/J	.	.	8B-\J	.	8B-/J	.	.	.	8BB-/J	.	8BB-/J	.	8B-\J	.	8B-/J	.	.	.	.	.	.	8BB-\J	8B-/J	.	8b-\J	.	8b-\J
=-	=-	=-	=-	=-	=-	=-	=-	=-	=-	=-	=-	=-	=-	=-	=-	=-	=-	=-	=-	=-	=-	=-	=-	=-	=-	=-	=-
4FF/	.	.	4F/	.	4A/	.	.	.	4FF/	-nus	4F/	-nus	4f\	-nus	4f/	-nus	4r	4r	4r	.	4r	4FF/	4A/	.	4a\	.	4a\
4F\	5	.	4f\	.	4A/ 4f 4cc	.	.	.	4F\	tu	4c\	tu	4e-\	tu	4cc\	tu	4Re/	4f/	4f/	.	4cc\	4F\	4a\	.	4cc\	.	4ccc\
!	!	!	!	!	!LO:PB:g=original	!	!	!	!	!	!LO:LB:g=original	!	!	!	!	!	!	!	!	!	!	!	!	!	!	!	!
=12	=12	=12	=12	=12	=12	=12	=12	=12	=12	=12	=12	=12	=12	=12	=12	=12	=12	=12	=12	=12	=12	=12	=12	=12	=12	=12	=12
4B-\	3	.	4r	.	16b-\LL	.	1ryy	.	4B-\	so-	4B-\	so-	4f\	So-	4dd\	so-	4r	4r	4b-\	.	4dd\	4d\	4b-\	.	4dd\	.	4ddd\
.	.	.	.	.	16cc\J	.	.	.	.	.	.	.	.	.	.	.	.	.	.	.	.	.	.	.	.	.	.
.	.	.	.	.	8dd\J	.	.	.	.	.	.	.	.	.	.	.	.	.	.	.	.	.	.	.	.	.	.
4r	.	.	4f\	.	16b-\LL	.	.	.	8B-\	-lus	8B-\	-lus	8f\	-lus	8dd\L	-lus	4Ra/	4b-\	8b-\L	.	8dd\L	8d\L	8b-\L	.	8dd\L	.	8ddd\L
.	.	.	.	.	16cc\J	.	.	.	.	.	.	.	.	.	.	.	.	.	.	.	.	.	.	.	.	.	.
.	.	.	.	.	8dd\J	.	.	.	8B-\	al-	8B-\	al-	8f\	al-	8dd\J	al-	.	.	8b-\J	.	8dd\J	8d\J	8b-\J	.	8dd\J	.	8ddd\J
!	!	!	!	!	!	!	!	!	!LO:LB:g=original	!	!	!	!	!	!	!	!	!	!	!	!	!	!	!	!	!	!
=-	=-	=-	=-	=-	=-	=-	=-	=-	=-	=-	=-	=-	=-	=-	=-	=-	=-	=-	=-	=-	=-	=-	=-	=-	=-	=-	=-
4F\	5	.	4r	.	16f/LL	.	.	.	4F\	-tiſ-	4f\	-tis-	4e-\	-tis-	4cc\	-tis-	4r	4r	4f/	.	4cc\	4c\	4a\	.	4cc\	.	4ccc\
.	.	.	.	.	16g/J	.	.	.	.	.	.	.	.	.	.	.	.	.	.	.	.	.	.	.	.	.	.
.	.	.	.	.	8a/J	.	.	.	.	.	.	.	.	.	.	.	.	.	.	.	.	.	.	.	.	.	.
4r	.	.	4f\	.	16f/LL	.	.	.	8F\	-si-	8f\	-ſi-	8e-\	-ſi-	8cc\L	-ſi-	4Re/	4f/	8f/L	.	8cc\L	8c\L	8a\L	.	8cc\L	.	8ccc\L
.	.	.	.	.	16g/J	.	.	.	.	.	.	.	.	.	.	.	.	.	.	.	.	.	.	.	.	.	.
.	.	.	.	.	8a/J	.	.	.	8F\	-mus	8f\	-mus	8e-\	-mus	8cc\J	-(mus)	.	.	8f/J	.	8cc\J	8c\J	8a\J	.	8cc\J	.	8ccc\J
!	!	!	!	!	!	!	!	!	!	!	!	!	!	!	!	!	!	!	!LO:LB:g=original	!	!LO:PB:g=original	!	!	!	!	!	!
=13	=13	=13	=13	=13	=13	=13	=13	=13	=13	=13	=13	=13	=13	=13	=13	=13	=13	=13	=13	=13	=13	=13	=13	=13	=13	=13	=13
!LO:TX:t=P:problem=mixed beam	!	!	!	!	!	!	!	!	!	!	!	!	!	!	!	!	!	!	!	!	!	!	!	!	!	!	!
8BB-/L	8_ 5_ 3_	.	8B-\L	.	4B-/ 4f 4b-	.	16b-\LL	.	4.B-\	Quo-	4.B-\	Quo-	4.d\	quo-	4.b-\	quo-	4Ra/	4b-\	4d/	.	4b-\	4B-\	4b-\	.	4dd\	.	4bb-\
.	.	.	.	.	.	.	16cc\J	.	.	.	.	.	.	.	.	.	.	.	.	.	.	.	.	.	.	.	.
8B-\	.	.	8b-\	.	.	.	8dd\J	.	.	.	.	.	.	.	.	.	.	.	.	.	.	.	.	.	.	.	.
8B-\	.	.	8b-\	.	4B-/ 4f 4b-	.	16b-\LL	.	.	.	.	.	.	.	.	.	8Ra/L	8b-\L	8d/L	.	8b-\L	8B-\L	8b-\L	.	8dd\L	.	8bb-\L
.	.	.	.	.	.	.	16cc\J	.	.	.	.	.	.	.	.	.	.	.	.	.	.	.	.	.	.	.	.
8B-\J	x x x	.	8b-\J	.	.	.	8dd\J	.	8B-\	-ni-	8B-\	-ni-	8d\	-ni-	8b-\	-ni-	8Ra/J	8b-\J	8d/J	.	8b-\J	8B-\J	8b-\J	.	8dd\J	.	8bb-\J
4B-\	.	.	4b-\	.	4B-/ 4b-	.	8b-\	.	4B-\	-am	4B-\	-am	4d\	-am	4b-\	-am	4Ra/	4b-\	4d/	.	4b-\	4B-\	4b-\	.	4dd\	.	4bb-\
.	.	.	.	.	.	.	4dd\	.	.	.	.	.	.	.	.	.	.	.	.	.	.	.	.	.	.	.	.
4r	.	.	4r	.	4r	.	.	.	4r	.	4r	.	4r	.	4r	.	4r	4r	4r	.	4r	4r	4r	.	4r	.	4r
.	.	.	.	.	.	.	8b-\	.	.	.	.	.	.	.	.	.	.	.	.	.	.	.	.	.	.	.	.
!	!	!	!LO:LB:g=original	!	!	!	!	!	!	!	!	!	!	!	!LO:LB:g=original	!	!	!	!	!	!	!	!	!	!	!	!
=14	=14	=14	=14	=14	=14	=14	=14	=14	=14	=14	=14	=14	=14	=14	=14	=14	=14	=14	=14	=14	=14	=14	=14	=14	=14	=14	=14
*2\right	*	*	*	*	*	*	*	*	*	*	*	*	*	*	*	*	*	*	*	*	*	*	*	*	*	*	*
*tremolo	*	*	*	*	*	*	*	*	*	*ij	*	*	*	*ij	*	*	*	*	*	*	*	*	*	*	*	*	*
!	!	!	!LO:TX:t=P:problem=mixed beam	!	!	!	!	!	!	!	!	!	!	!	!	!	!	!	!	!	!	!	!	!	!	!	!
8F\L	5_ 3_	.	8F/L	.	4A/ 4f 4cc	.	16ff\LL	.	4.F\	Quo-	4.f\	Quo-	4.a\	quo-	4.cc\	quo-	4Re/	4f/	4f/	.	4dd\	4c\	4a\	.	4cc\	.	4ccc\
.	.	.	.	.	.	.	16gg\J	.	.	.	.	.	.	.	.	.	.	.	.	.	.	.	.	.	.	.	.
8F\	.	.	8f\	.	.	.	8aa\J	.	.	.	.	.	.	.	.	.	.	.	.	.	.	.	.	.	.	.	.
8F\	.	.	8f\	.	4A/ 4f 4cc	.	16ff\LL	.	.	.	.	.	.	.	.	.	8Re/L	8f/L	8f/L	.	8cc\L	8c\L	8a\L	.	8cc\L	.	8ccc\L
.	.	.	.	.	.	.	16gg\J	.	.	.	.	.	.	.	.	.	.	.	.	.	.	.	.	.	.	.	.
8F\J	.	.	8f\J	.	.	.	8aa\J	.	8F\	-ni-	8f\	-ni-	8a\	-ni-	8cc\	-ni-	8Re/J	8f/J	8f/J	.	8cc\J	8c\J	8a\J	.	8cc\J	.	8ccc\J
*Xtremolo	*	*	*	*	*	*	*	*	*	*	*	*	*	*	*	*	*	*	*	*	*	*	*	*	*	*	*
4F\	x x	.	4f\	.	4A/ 4f 4cc	.	8ff\	.	4F\	-am	4f\	-am	4a\	-am	4cc\	-am	4Re/	4f/	4f/	.	4cc\	4c\	4a\	.	4cc\	.	4ccc\
*	*	*	*	*	*	*	*	*	*	*Xij	*	*	*	*Xij	*	*	*	*	*	*	*	*	*	*	*	*	*
.	.	.	.	.	.	.	4aa\	.	.	.	.	.	.	.	.	.	.	.	.	.	.	.	.	.	.	.	.
4r	.	.	4r	.	4r	.	.	.	4r	.	4r	.	4r	.	4r	.	4r	4r	4r	.	4r	4r	4r	.	4r	.	4r
.	.	.	.	.	.	.	8ff\	.	.	.	.	.	.	.	.	.	.	.	.	.	.	.	.	.	.	.	.
!	!	!	!	!	!	!	!	!	!	!	!	!	!	!	!	!	!	!	!	!	!	!LO:LB:g=original	!	!	!	!	!
=15	=15	=15	=15	=15	=15	=15	=15	=15	=15	=15	=15	=15	=15	=15	=15	=15	=15	=15	=15	=15	=15	=15	=15	=15	=15	=15	=15
*	*	*	*2\right	*	*	*	*	*	*	*	*	*	*	*	*	*	*	*	*	*	*	*	*	*	*	*	*
*tremolo	*	*	*tremolo	*	*	*	*	*	*2\right	*	*	*	*	*	*	*	*	*	*2\right	*	*	*2\right	*2\right	*	*	*	*
!	!	!	!	!	!	!	!	!	!	!	!	!	!	!	!	!	!LO:TX:a:t=1	!	!	!	!	!	!	!	!	!	!
8c\L	7 5	.	8cc\L	.	8gg\L	.	8bb-\L	.	2c\	tu	2c\	tu	2g\	tu	2b-\	tu	1r	1r	2cc\	.	2cc\	2B-\	2gg\	.	2bb-\	.	4bb-\
8c\	.	.	8cc\	.	16gg\L	.	16bb-\L	.	.	.	.	.	.	.	.	.	.	.	.	.	.	.	.	.	.	.	.
.	.	.	.	.	16ff\JJ	.	16aa\JJ	.	.	.	.	.	.	.	.	.	.	.	.	.	.	.	.	.	.	.	.
!	!	!	!	!	!	!	!LO:LB:g=original	!	!	!	!	!	!	!	!	!	!	!	!	!	!	!	!	!	!	!	!
=-	=-	=-	=-	=-	=-	=-	=-	=-	=-	=-	=-	=-	=-	=-	=-	=-	=-	=-	=-	=-	=-	=-	=-	=-	=-	=-	=-
8c\	.	.	8cc\	.	8een\L	.	8gg\L	.	.	.	.	.	.	.	.	.	.	.	.	.	.	.	.	.	.	.	4r
8c\J	.	.	8cc\J	.	16ee\L	.	16gg\L	.	.	.	.	.	.	.	.	.	.	.	.	.	.	.	.	.	.	.	.
.	.	.	.	.	16dd\JJ	.	16ff\JJ	.	.	.	.	.	.	.	.	.	.	.	.	.	.	.	.	.	.	.	.
8C/L	7 5	.	8c\L	.	8cc\L	.	8een\L	.	4C/	so-	4c\	so-	4g\	So-	4b-\	so-	.	.	2cc\	.	2cc\	2B-\	2gg\	.	2bb-\	.	8eeen\L
8C/	.	.	8c\	.	16cc\L	.	16ee\L	.	.	.	.	.	.	.	.	.	.	.	.	.	.	.	.	.	.	.	16eee\L
.	.	.	.	.	16b-\JJ	.	16dd\JJ	.	.	.	.	.	.	.	.	.	.	.	.	.	.	.	.	.	.	.	16ddd\JJ
8C/	.	.	8c\	.	8a/L	.	8cc\L	.	4C/	-lus	4c\	-lus	4g\	-lus	4b-\	-lus	.	.	.	.	.	.	.	.	.	.	8ccc\L
8C/J	.	.	8c\J	.	8g/J	.	8b-\J	.	.	.	.	.	.	.	.	.	.	.	.	.	.	.	.	.	.	.	8bb-\J
!	!	!	!	!	!LO:LB:g=original	!	!	!	!	!	!	!	!	!	!	!	!	!	!	!	!	!	!	!	!LO:LB:g=original	!	!LO:LB:g=original
=16	=16	=16	=16	=16	=16	=16	=16	=16	=16	=16	=16	=16	=16	=16	=16	=16	=16	=16	=16	=16	=16	=16	=16	=16	=16	=16	=16
8F\L	4 2	.	8f\L	.	8g/L	.	8b-\L	.	2F\	San-	2c\	San-	8g\L	San-	8b-\L	san-	4Re/	4f/	4f/	.	4cc\	8B-\L	4.gg\	.	4.bb-\	.	8bb-\L
8F\	3 1	.	8f\	.	8f/	.	8an\	.	.	.	.	.	8f\	.	8a\	.	.	.	.	.	.	8A\	.	.	.	.	8aa\
8F\	6 4	.	8f\	.	8b-/	.	8dd\	.	.	.	.	.	8b-\	.	8dd\	.	4r	4r	4r	.	4r	8d\	.	.	.	.	8ddd\
8F\J	.	.	8f\J	.	8a/J	.	8cc\J	.	.	.	.	.	8a\J	.	8cc\J	.	.	.	.	.	.	8c\J	8ff\	.	8aa\	.	8ccc\J
*Xtremolo	*	*	*Xtremolo	*	*	*	*	*	*	*	*	*	*	*	*	*	*tremolo	*	*	*	*	*	*	*	*	*	*
8F'\L	5 3	.	8f\L	.	4a/	.	4cc\	.	4F\	-ctus	4c\	-ctus	4a\	-ctus	4cc\	-ctus	8r	8r	8r	.	8r	4c\	4ff\	.	4aa\	.	4ccc\
!	!	!	!	!	!	!	!	!	!	!	!	!	!	!	!	!	!LO:TX:b:t=...	!	!	!	!	!	!	!	!	!	!
8c'\	.	.	8cc\	.	.	.	.	.	.	.	.	.	.	.	.	.	8Re'/L	8f/L	8f/L	.	8cc\L	.	.	.	.	.	.
8A'\	.	.	8a\	.	4r	.	4r	.	4r	.	4r	.	4r	.	4r	.	8Re'/	8f/	8f/	.	8cc\	4r	4r	.	4r	.	4r
8F'\J	.	.	8f\J	.	.	.	.	.	.	.	.	.	.	.	.	.	8Re'/J	8f/J	8f/J	.	8cc\J	.	.	.	.	.	.
*	*	*	*	*	*	*	*	*	*	*	*	*	*	*	*	*	*Xtremolo	*	*	*	*	*	*	*	*	*	*
!LO:LB:g=original	!	!	!	!	!	!	!	!	!	!	!	!	!LO:LB:g=original	!	!	!	!LO:LB:g=original	!	!	!	!	!	!	!	!	!	!
=17	=17	=17	=17	=17	=17	=17	=17	=17	=17	=17	=17	=17	=17	=17	=17	=17	=17	=17	=17	=17	=17	=17	=17	=17	=17	=17	=17
*tremolo	*	*	*tremolo	*	*	*	*	*	*	*	*	*	*	*	*	*	*	*	*	*	*	*	*	*	*	*	*2\right
!	!	!	!	!	!	!	!	!	!	!	!	!	!	!	!	!	!LO:TX:a:t=1.	!	!	!	!	!	!	!	!	!	!
8c\L	.	.	8en\L	.	8cc\	.	8cc\L	.	2c\	Quo-	2B-\	Quo-	2g\	Quo-	2cc\	quo-	1r	4cc\	2cc\	.	2cc\	2B-\	2g/	.	2eeX\	.	2ccc\
8c\	.	.	8en\	.	4cc\	.	16cc\L	.	.	.	.	.	.	.	.	.	.	.	.	.	.	.	.	.	.	.	.
.	.	.	.	.	.	.	16dd\JJ	.	.	.	.	.	.	.	.	.	.	.	.	.	.	.	.	.	.	.	.
8c\	.	.	8en\	.	.	.	8een\L	.	.	.	.	.	.	.	.	.	.	4r	.	.	.	.	.	.	.	.	.
8c\J	.	.	8en\J	.	8bn\	.	16ee\L	.	.	.	.	.	.	.	.	.	.	.	.	.	.	.	.	.	.	.	.
.	.	.	.	.	.	.	16ff\JJ	.	.	.	.	.	.	.	.	.	.	.	.	.	.	.	.	.	.	.	.
8B-\L	4	.	8e\L	.	8cc\	.	8gg\L	.	2B-\	-ni-	2B-\	-ni-	2b-\	-ni-	2een\	-ni-	.	8r	2cc\	.	2cc\	2A\	2g/	.	2ee\	.	2eeen\
8B-\	.	.	8e\	.	4cc\	.	16gg\L	.	.	.	.	.	.	.	.	.	.	8cc\L	.	.	.	.	.	.	.	.	.
.	.	.	.	.	.	.	16aa\JJ	.	.	.	.	.	.	.	.	.	.	.	.	.	.	.	.	.	.	.	.
8B-\	.	.	8e\	.	.	.	8bb-\L	.	.	.	.	.	.	.	.	.	.	8cc\	.	.	.	.	.	.	.	.	.
8B-\J	.	.	8e\J	.	8b-X\	.	8gg\J	.	.	.	.	.	.	.	.	.	.	8cc\J	.	.	.	.	.	.	.	.	.
*Xtremolo	*	*	*Xtremolo	*	*	*	*	*	*	*	*	*	*	*	*	*	*	*	*	*	*	*	*	*	*	*	*
!LO:LB:g=original	!	!	!	!	!	!	!	!	!	!	!	!	!	!	!	!	!	!LO:LB:g=original	!	!	!	!	!	!	!	!	!
=18	=18	=18	=18	=18	=18	=18	=18	=18	=18	=18	=18	=18	=18	=18	=18	=18	=18	=18	=18	=18	=18	=18	=18	=18	=18	=18	=18
!	!	!	!LO:TX:a:t=bis	!	!	!	!	!	!	!	!	!	!	!	!	!	!	!	!	!	!	!	!	!	!	!	!
8A\L	6	.	8f\L	.	8a\L	.	8ff\	.	2A\	-am	2c\	-am	2a\	-am	2ff\	-am	4Re/	4f/	2f/	.	2cc\	2B-\	2a\	.	2ff\	.	2fff\
8A\	.	.	16f\L	.	16a\L	.	4aa\	.	.	.	.	.	.	.	.	.	.	.	.	.	.	.	.	.	.	.	.
.	.	.	16g\JJ	.	16b-\JJ	.	.	.	.	.	.	.	.	.	.	.	.	.	.	.	.	.	.	.	.	.	.
8F\	8	.	16a\LL	.	16cc\LL	.	.	.	.	.	.	.	.	.	.	.	8Re/L	8f/L	.	.	.	.	.	.	.	.	.
.	.	.	16g\J	.	16b-\J	.	.	.	.	.	.	.	.	.	.	.	.	.	.	.	.	.	.	.	.	.	.
8F\J	.	.	8f\J	.	8a\J	.	8ff\	.	.	.	.	.	.	.	.	.	8Re/J	8f/J	.	.	.	.	.	.	.	.	.
8A\L	6	.	8f\L	.	8a\L	.	8ff\	.	2F\	tu	2c\	tu	2a\	tu	2ff\	tu	4Re/	4f/	2f/	.	2cc\	2A\	2a\	.	2ff\	.	2ccc\
8A\	.	.	16f\L	.	16b-\L	.	4aa\	.	.	.	.	.	.	.	.	.	.	.	.	.	.	.	.	.	.	.	.
.	.	.	16g\JJ	.	16cc\JJ	.	.	.	.	.	.	.	.	.	.	.	.	.	.	.	.	.	.	.	.	.	.
8F\	8	.	16a\LL	.	16cc\LL	.	.	.	.	.	.	.	.	.	.	.	8Re/L	8f/L	.	.	.	.	.	.	.	.	.
.	.	.	16g\J	.	16b-\J	.	.	.	.	.	.	.	.	.	.	.	.	.	.	.	.	.	.	.	.	.	.
8F\J	.	.	8f\J	.	8a\J	.	8ff\	.	.	.	.	.	.	.	.	.	8Re/J	8f/J	.	.	.	.	.	.	.	.	.
!	!	!	!LO:LB:g=original	!	!	!	!LO:LB:g=original	!	!LO:LB:g=original	!	!LO:PB:g=original	!	!	!	!	!	!	!	!	!	!	!	!	!	!	!	!
=19	=19	=19	=19	=19	=19	=19	=19	=19	=19	=19	=19	=19	=19	=19	=19	=19	=19	=19	=19	=19	=19	=19	=19	=19	=19	=19	=19
*tremolo	*	*	*tremolo	*	*	*	*	*	*	*	*	*	*	*	*	*	*	*	*	*	*	*	*	*	*	*	*
!	!	!	!LO:TX:t=P:problem=t. 19-20 zapisane jako repetycja	!	!	!	!LO:TX:t=P:problem=t. 19-20 zapisane jako repetycja	!	!	!	!	!	!	!	!	!	!LO:TX:a:t=1.	!LO:TX:t=P:problem=t. 19-20 zapisane jako repetycja	!	!	!	!	!	!	!LO:SIC:v:s=2ff#\	!	!LO:TX:t=P:problem=t. 19-20 zapisane jako powtórka
8c\L	.	.	8en\L	.	8cc\	.	8cc\L	.	2c\	so-	2B-\	so-	2g\	so-	2cc\	so-	1r	4cc\	2cc\	.	2cc\	2B-\	2g\	.	2ee-\	.	2ccc\
8c\	.	.	8en\	.	4cc\	.	16cc\L	.	.	.	.	.	.	.	.	.	.	.	.	.	.	.	.	.	.	.	.
.	.	.	.	.	.	.	16dd\JJ	.	.	.	.	.	.	.	.	.	.	.	.	.	.	.	.	.	.	.	.
8c\	.	.	8en\	.	.	.	8een\L	.	.	.	.	.	.	.	.	.	.	4r	.	.	.	.	.	.	.	.	.
8c\J	.	.	8en\J	.	8bn\	.	16ee\L	.	.	.	.	.	.	.	.	.	.	.	.	.	.	.	.	.	.	.	.
.	.	.	.	.	.	.	16ff\JJ	.	.	.	.	.	.	.	.	.	.	.	.	.	.	.	.	.	.	.	.
!	!	!	!	!	!LO:LB:g=original	!	!	!	!	!	!	!	!	!	!	!	!	!	!	!	!	!	!	!	!	!	!
=-	=-	=-	=-	=-	=-	=-	=-	=-	=-	=-	=-	=-	=-	=-	=-	=-	=-	=-	=-	=-	=-	=-	=-	=-	=-	=-	=-
!	!	!	!	!	!	!	!	!	!	!	!	!	!	!	!	!	!	!	!	!	!	!	!	!	!LO:SIC:v:s=2ff#\	!	!
8B-\L	4	.	8e\L	.	8cc\	.	8gg\L	.	2B-\	-lus	2B-\	-lus	2b-\	-lus	2een\	-lus	.	8r	2cc\	.	2cc\	2A\	2g\	.	2ee-\	.	2eeen\
8B-\	.	.	8e\	.	4cc\	.	16gg\L	.	.	.	.	.	.	.	.	.	.	8cc\L	.	.	.	.	.	.	.	.	.
.	.	.	.	.	.	.	16aa\JJ	.	.	.	.	.	.	.	.	.	.	.	.	.	.	.	.	.	.	.	.
8B-\	.	.	8e\	.	.	.	8bb-\L	.	.	.	.	.	.	.	.	.	.	8cc\	.	.	.	.	.	.	.	.	.
8B-\J	.	.	8e\J	.	8b-X\	.	8gg\J	.	.	.	.	.	.	.	.	.	.	8cc\J	.	.	.	.	.	.	.	.	.
*Xtremolo	*	*	*Xtremolo	*	*	*	*	*	*	*	*	*	*	*	*	*	*	*	*	*	*	*	*	*	*	*	*
!	!	!	!	!	!	!	!	!	!	!	!	!	!	!	!	!	!	!	!	!	!LO:LB:g=original	!	!LO:LB:g=original	!	!	!	!
=20	=20	=20	=20	=20	=20	=20	=20	=20	=20	=20	=20	=20	=20	=20	=20	=20	=20	=20	=20	=20	=20	=20	=20	=20	=20	=20	=20
8A\L	6	.	8f\L	.	8a\L	.	8ff\	.	2A\	San-	2c\	San-	2a\	san-	2ff\	San-	4Re/	4f/	2f/	.	2cc\	2B-\	2a\	.	2ff\	.	2fff\
8A\	.	.	16f\L	.	16a\L	.	4aa\	.	.	.	.	.	.	.	.	.	.	.	.	.	.	.	.	.	.	.	.
.	.	.	16g\JJ	.	16b-\JJ	.	.	.	.	.	.	.	.	.	.	.	.	.	.	.	.	.	.	.	.	.	.
8F\	8	.	16a\LL	.	16cc\LL	.	.	.	.	.	.	.	.	.	.	.	8Re/L	8f/L	.	.	.	.	.	.	.	.	.
.	.	.	16g\J	.	16b-\J	.	.	.	.	.	.	.	.	.	.	.	.	.	.	.	.	.	.	.	.	.	.
8F\J	.	.	8f\J	.	8a\J	.	8ff\	.	.	.	.	.	.	.	.	.	8Re/J	8f/J	.	.	.	.	.	.	.	.	.
8A\L	6	.	8f\L	.	8a\L	.	8ff\	.	2F\	-ctus	2c\	-ctus	2a\	-ctus	2ff\	-ctus	4Re/	4f/	2f/	.	2cc\	2A\	2a\	.	2ff\	.	2ccc\
8A\	.	.	16f\L	.	16a\L	.	4aa\	.	.	.	.	.	.	.	.	.	.	.	.	.	.	.	.	.	.	.	.
.	.	.	16g\JJ	.	16b-\JJ	.	.	.	.	.	.	.	.	.	.	.	.	.	.	.	.	.	.	.	.	.	.
8F\	8	.	16a\LL	.	16cc\LL	.	.	.	.	.	.	.	.	.	.	.	8Re/L	8f/L	.	.	.	.	.	.	.	.	.
.	.	.	16g\J	.	16b-\J	.	.	.	.	.	.	.	.	.	.	.	.	.	.	.	.	.	.	.	.	.	.
8F\J	.	.	8f\J	.	8a\J	.	8ff\	.	.	.	.	.	.	.	.	.	8Re/J	8f/J	.	.	.	.	.	.	.	.	.
!	!	!	!	!	!	!	!	!	!	!	!	!	!	!	!	!	!	!	!LO:PB:g=original	!	!	!	!	!	!	!	!
=21	=21	=21	=21	=21	=21	=21	=21	=21	=21	=21	=21	=21	=21	=21	=21	=21	=21	=21	=21	=21	=21	=21	=21	=21	=21	=21	=21
*	*	*	*	*	*	*	*	*	*	*	*	*	*	*	*	*	*tremolo	*	*	*	*	*	*	*	*	*	*
!	!	!	!	!	!	!	!	!	!	!	!	!	!	!	!	!	!LO:TX:b:t=...	!	!	!	!	!	!	!	!	!	!
8B-\	3	.	8b-\	.	8dd\	.	8dd\	.	8B-\	tu	8d\	tu	8dd\	tu	8dd\	tu	8Ra'/L	8b-\L	8b-\L	.	8dd\L	8d\L	8b-\L	.	8dd\L	.	8ddd\L
4B-\	6	.	4b-\	.	4dd\	.	4gg\	.	4B-\	so-	4d\	so-	4dd\	so-	4gg\	so-	8Ra'/	8b-\	8b-\	.	8dd\	8d\	8b-\	.	8dd\	.	8ddd\
.	.	.	.	.	.	.	.	.	.	.	.	.	.	.	.	.	8Ra'/J	8b-\J	8b-\J	.	8dd\J	8d\J	8b-\J	.	8dd\J	.	8ddd\J
8c\	4	.	8cc\	.	8ee-X\	.	8ff#X\	.	8c\	-lus	8c\	-lus	8ee-X\	-lus	8ff#X\L	-lus	8r	8r	8r	.	8r	8r	8r	.	8r	.	8r
*	*	*	*	*	*	*	*	*	*	*ij	*	*	*	*ij	*	*	*	*	*tremolo	*	*	*tremolo	*tremolo	*	*tremolo	*	*tremolo
!	!	!	!	!	!	!	!	!	!	!	!	!	!	!	!	!	!LO:TX:b:t=...	!	!	!	!	!LO:TX:t=...	!LO:TX:t=...	!	!LO:TX:t=....	!	!LO:TX:t=....
8d\	4	.	8dd\	.	8dd\	.	8gg\	.	8d\	tu	8d\	tu	8dd\	tu	8gg\J	tu	8Ra'/L	8b-\L	8b-\L	.	8dd\L	8d'\L	8b-'\L	.	8dd'\L	.	8ddd'\L
4d\	6	.	4dd\	.	4dd\	.	4bb-\	.	4d\	so-	4d\	so-	4dd\	so-	4gg\	so-	8Ra'/	8b-\	8b-\	.	8dd\	8d'\	8b-'\	.	8dd'\	.	8ddd'\
.	.	.	.	.	.	.	.	.	.	.	.	.	.	.	.	.	8Ra'/J	8b-\J	8b-\J	.	8dd\J	8d'\J	8b-'\J	.	8dd'\J	.	8ddd'\J
*	*	*	*	*	*	*	*	*	*	*	*	*	*	*	*	*	*	*	*Xtremolo	*	*	*	*Xtremolo	*	*	*	*
8e-X\	631	.	8ee-X\	.	8cc\	.	8ff#\	.	8e-X\	-lus	8c\	-lus	8cc\	-lus	8ff#\	-lus	8r	8r	8r	.	8r	8r	8r	.	8r	.	8r
!LO:LB:g=original	!	!	!	!	!	!	!	!	!	!	!	!	!	!	!LO:LB:g=original	!	!	!	!	!	!	!	!	!	!	!	!
=22	=22	=22	=22	=22	=22	=22	=22	=22	=22	=22	=22	=22	=22	=22	=22	=22	=22	=22	=22	=22	=22	=22	=22	=22	=22	=22	=22
*	*	*	*	*	*	*	*	*	*	*	*	*	*	*	*	*	*	*	*	*	*tremolo	*	*	*	*	*	*
!	!	!	!	!	!	!	!	!	!	!	!	!	!	!	!	!	!	!	!	!	!LO:TX:t=...	!LO:TX:t=...	!	!	!LO:TX:t=....	!	!LO:TX:t=....
8d\	4	.	8dd\	.	8dd\	.	8gg\	.	8d\	tu	8d\	tu	8dd\	tu	8gg\	tu	8Ra/L	8b-\L	8b-\L	.	8dd'\L	8d'\L	8b-\L	.	8dd'\L	.	8ddd'\L
4d\	6	.	4dd\	.	4dd\	.	4bb-\	.	4d\	so-	4d\	so-	4dd\	so-	4gg\	so-	8Ra/	8b-\	8b-\	.	8dd'\	8d'\	8b-\	.	8dd'\	.	8ddd'\
.	.	.	.	.	.	.	.	.	.	.	.	.	.	.	.	.	8Ra/J	8b-\J	8b-\J	.	8dd'\J	8d'\J	8b-\J	.	8dd'\J	.	8ddd'\J
*	*	*	*	*	*	*	*	*	*	*	*	*	*	*	*	*	*	*	*	*	*	*	*	*	*Xtremolo	*	*
8c\	63	.	8cc\	.	8ee-X\	.	8ff#X\	.	8c\	-lus	8c\	-lus	8ee-X\	-lus	8ff#X\	-lus	8r	8r	8r	.	8r	8r	8r	.	8r	.	8r
*	*	*	*	*	*	*	*	*	*	*Xij	*	*	*	*Xij	*	*	*	*	*tremolo	*	*	*	*	*	*	*	*
!	!	!	!	!	!	!	!	!	!	!	!	!	!	!	!LO:TX:t=P:problem=8 połączona belką z poprzednią	!	!	!	!	!	!	!	!	!	!	!	!
!	!	!	!	!	!	!	!	!	!	!	!	!	!	!	!LO:N:vis=8	!	!	!	!LO:N:vis=4	!	!LO:TX:t=...	!LO:TX:t=...	!	!	!	!	!LO:TX:t=....
8B-\	6	.	8b-\	.	8dd\	.	8gg\	.	4B-\	Do-	4d\	Do-	4dd\	Do-	4gg\	do-	8Ra/L	8b-\L	8b-\L	.	8dd'\L	8d'\L	8b-\L	.	8gg\L	.	8ddd'\L
4B-\	7	.	4b-\	.	4dd\	.	4aa\	.	.	.	.	.	.	.	.	.	8Ra/	8b-\	8b-\	.	8dd'\	8d'\	8b-\J	.	8gg\J	.	8ddd'\
.	.	.	.	.	.	.	.	.	4Bn\	-mi-	4d\	-mi-	4dd\	-mi-	4ffn\	-mi-	8Ra/J	8b-\J	8b-\J	.	8dd'\J	8d'\J	4a\	.	4ff\	.	8ddd'\J
*	*	*	*	*	*	*	*	*	*	*	*	*	*	*	*	*	*Xtremolo	*	*Xtremolo	*	*Xtremolo	*Xtremolo	*	*	*	*	*Xtremolo
8Bn\	5	.	8bn\	.	8cc\	.	8ffn\	.	.	.	.	.	.	.	.	.	8r	8r	8r	.	8r	8r	.	.	.	.	8r
!	!	!	!	!	!LO:LB:g=original	!	!	!	!	!	!	!	!	!	!	!	!	!	!	!	!	!LO:LB:g=original	!	!	!	!	!
=23	=23	=23	=23	=23	=23	=23	=23	=23	=23	=23	=23	=23	=23	=23	=23	=23	=23	=23	=23	=23	=23	=23	=23	=23	=23	=23	=23
8c\L	.	.	8cc\L	.	8cc\	.	16een\LL	.	4c\	-nus	4c\	-nus	4b-\	-nus	4een\	-nus	2r	2r	4cc\	.	4cc\	4en\	4g\	.	4eeX\	.	2r
.	.	.	.	.	.	.	16ff\J	.	.	.	.	.	.	.	.	.	.	.	.	.	.	.	.	.	.	.	.
8c\	.	.	8cc\	.	4cc\	.	8gg\J	.	.	.	.	.	.	.	.	.	.	.	.	.	.	.	.	.	.	.	.
8B-X\	4	.	8b-X\	.	.	.	16cc\LL	.	4B-X\	tu	4c\	tu	4b-\	tu	4ee\	tu	.	.	8cc\L	.	8cc\L	8e\L	8g\L	.	8ee\L	.	.
.	.	.	.	.	.	.	16dd\J	.	.	.	.	.	.	.	.	.	.	.	.	.	.	.	.	.	.	.	.
8B-\J	.	.	8b-\J	.	8cc\	.	8ee\J	.	.	.	.	.	.	.	.	.	.	.	8cc\J	.	8cc\J	8e\J	8g\J	.	8ee\J	.	.
8A\L	6	.	8a\L	.	8cc\	.	16ff\LL	.	4A\	so-	4c\	so-	4a\	So-	4ff\	so-	4Re/	4f/	4f/	.	4cc\	4f\	4a\	.	4ff\	.	4r
.	.	.	.	.	.	.	16gg\J	.	.	.	.	.	.	.	.	.	.	.	.	.	.	.	.	.	.	.	.
8A\	.	.	8a\	.	4cc\	.	8aa\J	.	.	.	.	.	.	.	.	.	.	.	.	.	.	.	.	.	.	.	.
8F\	8	.	8f\	.	.	.	16aa\LL	.	4F\	-lus	4c\	-lus	4a\	-lus	4ff\	-lus	8Re/L	8f/L	8f/L	.	8cc\L	8f\L	4a\	.	4ff\	.	8ff\L
.	.	.	.	.	.	.	16gg\J	.	.	.	.	.	.	.	.	.	.	.	.	.	.	.	.	.	.	.	.
8F\J	.	.	8f\J	.	8cc\	.	8ff\J	.	.	.	.	.	.	.	.	.	8Re/J	8f/J	8f/J	.	8cc\J	8f\J	.	.	.	.	8aa\J
!	!	!	!	!	!	!	!	!	!LO:LB:g=original	!	!	!	!LO:LB:g=original	!	!	!	!	!	!	!	!	!	!	!	!	!	!
=24	=24	=24	=24	=24	=24	=24	=24	=24	=24	=24	=24	=24	=24	=24	=24	=24	=24	=24	=24	=24	=24	=24	=24	=24	=24	=24	=24
!	!	!	!LO:TX:t=P:problem=t. 24 zapisany jako repetycja	!	!	!	!	!	!	!	!	!	!	!	!LO:SIC:v:s=een	!	!	!	!	!	!	!	!	!	!	!	!
8c\L	.	.	8cc\L	.	8cc\	.	16een\LL	.	4c\	al-	2c\	al-	2g\	al-	2ee-\	al-	2r	2r	4cc\	.	4cc\	4en\	4g\	.	4eeX\	.	4ccc\
.	.	.	.	.	.	.	16ff\J	.	.	.	.	.	.	.	.	.	.	.	.	.	.	.	.	.	.	.	.
8c\	4	.	8cc\	.	4cc\	.	8gg\J	.	.	.	.	.	.	.	.	.	.	.	.	.	.	.	.	.	.	.	.
8B-\	.	.	8b-X\	.	.	.	16cc\LL	.	4B-\	-tiſ-	.	.	.	.	.	.	.	.	8cc\L	.	8cc\L	8e\L	8g\L	.	8ee\L	.	4r
.	.	.	.	.	.	.	16dd\J	.	.	.	.	.	.	.	.	.	.	.	.	.	.	.	.	.	.	.	.
8B-\J	.	.	8b-\J	.	8cc\	.	8ee\J	.	.	.	.	.	.	.	.	.	.	.	8cc\J	.	8cc\J	8e\J	8g\J	.	8ee\J	.	.
!	!	!	!	!	!	!	!LO:LB:g=original	!	!	!	!	!	!	!	!	!	!	!	!	!	!	!	!	!	!	!	!
=-	=-	=-	=-	=-	=-	=-	=-	=-	=-	=-	=-	=-	=-	=-	=-	=-	=-	=-	=-	=-	=-	=-	=-	=-	=-	=-	=-
8A\L	6	.	8a\L	.	8cc\	.	16ff\LL	.	4A\	-si-	4c\	-tis-	4a\	-tis-	4ff\	-tis-	4Re/	4f/	4f/	.	4cc\	4f\	4a\	.	4ff\	.	4r
.	.	.	.	.	.	.	16gg\J	.	.	.	.	.	.	.	.	.	.	.	.	.	.	.	.	.	.	.	.
8A\	.	.	8a\	.	4cc\	.	8aa\J	.	.	.	.	.	.	.	.	.	.	.	.	.	.	.	.	.	.	.	.
8F\	8	.	8f\	.	.	.	16aa\LL	.	4F\	.	4c\	-ſi-	4a\	-ſi-	4ff\	-ſi-	8Re/L	8f/L	8f/L	.	8cc\L	8f\L	4a\	.	4ff\	.	8ff\L
.	.	.	.	.	.	.	16ff\J	.	.	.	.	.	.	.	.	.	.	.	.	.	.	.	.	.	.	.	.
8F\J	.	.	8f\J	.	8cc\	.	8ff\J	.	.	.	.	.	.	.	.	.	8Re/J	8f/J	8f/J	.	8cc\J	8f\J	.	.	.	.	8aa\J
!	!	!	!	!	!	!	!	!	!	!	!LO:LB:g=original	!	!	!	!	!	!	!	!	!	!	!	!	!	!	!	!
=25	=25	=25	=25	=25	=25	=25	=25	=25	=25	=25	=25	=25	=25	=25	=25	=25	=25	=25	=25	=25	=25	=25	=25	=25	=25	=25	=25
!	!	!	!	!	!	!	!	!	!	!	!	!	!	!	!	!	!	!LO:TX:t=P:problem=zbędne powtórzenie t. 25-26 clno princ	!	!	!	!	!	!	!	!	!
!LO:TX:t=P:problem=zbędne powtórzenie t. 25-26 clno princ	!	!	!LO:TX:t=P:problem=zbędne powtórzenie t. 25-26 clno princ	!	!LO:TX:t=P:problem=zbędne powtórzenie t. 25-26 clno princ	!	!LO:TX:t=P:problem=zbędne powtórzenie t. 25-26 clno princ	!	!LO:TX:t=P:problem=zbędne powtórzenie t. 25-26 clno princ	!	!LO:TX:t=P:problem=zbędne powtórzenie t. 25-26 clno princ	!	!LO:TX:t=P:problem=zbędne powtórzenie t. 25-26 clno princ	!	!LO:TX:t=P:problem=zbędne powtórzenie t. 25-26 clno princ	!	!LO:TX:t=P:problem=zbędne powtórzenie t. 25-26 clno princ	!	!LO:TX:t=P:problem=zbędne powtórzenie t. 25-26 clno princ	!	!LO:TX:t=P:problem=zbędne powtórzenie t. 25-26 clno princ	!LO:TX:t=P:problem=zbędne powtórzenie t. 25-26 clno princ	!LO:TX:t=P:problem=zbędne powtórzenie t. 25-26 clno princ	!	!LO:TX:t=P:problem=zbędne powtórzenie t. 25-26 clno princ	!	!LO:TX:t=P:problem=zbędne powtórzenie t. 25-26 clno princ
1ryy	.	.	1ryy	.	1ryy	.	1ryy	.	1ryy	.	1ryy	.	1ryy	.	1ryy	.	1ryy	2r	1ryy	.	1ryy	1ryy	1ryy	.	1ryy	.	1ryy
.	.	.	.	.	.	.	.	.	.	.	.	.	.	.	.	.	.	4f/	.	.	.	.	.	.	.	.	.
.	.	.	.	.	.	.	.	.	.	.	.	.	.	.	.	.	.	8f/L	.	.	.	.	.	.	.	.	.
.	.	.	.	.	.	.	.	.	.	.	.	.	.	.	.	.	.	8f/J	.	.	.	.	.	.	.	.	.
=26	=26	=26	=26	=26	=26	=26	=26	=26	=26	=26	=26	=26	=26	=26	=26	=26	=26	=26	=26	=26	=26	=26	=26	=26	=26	=26	=26
1ryy	.	.	1ryy	.	1ryy	.	1ryy	.	1ryy	.	1ryy	.	1ryy	.	1ryy	.	1ryy	2r	1ryy	.	1ryy	1ryy	1ryy	.	1ryy	.	1ryy
.	.	.	.	.	.	.	.	.	.	.	.	.	.	.	.	.	.	4f/	.	.	.	.	.	.	.	.	.
.	.	.	.	.	.	.	.	.	.	.	.	.	.	.	.	.	.	8f/L	.	.	.	.	.	.	.	.	.
.	.	.	.	.	.	.	.	.	.	.	.	.	.	.	.	.	.	8f/J	.	.	.	.	.	.	.	.	.
=27	=27	=27	=27	=27	=27	=27	=27	=27	=27	=27	=27	=27	=27	=27	=27	=27	=27	=27	=27	=27	=27	=27	=27	=27	=27	=27	=27
!	!	!	!	!	!	!	!	!	!	!	!	!	!	!	!LO:SIC:v:s=een	!	!LO:TX:a:t=15.	!	!	!	!	!	!	!	!	!	!
4c\	.	.	4cc\	.	4cc\	.	4een\	.	4c\	-mus	4c\	-mus	4g\	-mus	4ee-\	-mus	1r	4cc\	4cc\	.	4cc\	4en\	4g\	.	4eeX\	.	4ccc\
4C/	.	.	4c\	.	4G/ 4en 4cc	.	4g\ 4ee 4ccc	.	4r	.	4r	.	4r	.	4r	.	.	4cc\	4cc\	.	4cc\	4e\	4g\	.	4ee\	.	4ccc\
4C/	.	.	4c\	.	4G/ 4e 4cc	.	4g\ 4ee 4ccc	.	2r	.	2r	.	2r	.	2r	.	.	4cc\	4cc\	.	4cc\	4e\	4g\	.	4ee\	.	4ccc\
4r	.	.	4r	.	4r	.	4r	.	.	.	.	.	.	.	.	.	.	4r	4r	.	4r	4r	4r	.	4r	.	4r
!	!	!	!	!	!	!	!	!	!	!	!	!	!	!	!	!	!	!	!	!	!LO:LB:g=original	!	!LO:LB:g=original	!	!LO:LB:g=original	!	!
=28	=28	=28	=28	=28	=28	=28	=28	=28	=28	=28	=28	=28	=28	=28	=28	=28	=28	=28	=28	=28	=28	=28	=28	=28	=28	=28	=28
!	!	!	!LO:TX:b:i:t=V S&colon;	!	!	!	!	!	!	!	!	!	!	!	!	!	!	!	!	!	!	!	!	!	!	!	!
!LO:TX:a:t=1.	!	!	!LO:TX:a:t=1	!	!LO:TX:a:i:t=dol.	!LO:DY:b:rj	!	!LO:DY:b:t=p.	!LO:TX:a:t=1.	!	!LO:TX:a:t=1	!	!LO:TX:b:t=1.	!	!LO:TX:a:t=1.	!	!	!LO:TX:a:t=14	!LO:TX:a:t=1	!	!	!LO:TX:a:t=1	!LO:TX:a:t=1	!	!LO:TX:a:t=1	!	!LO:TX:a:t=8
1r	.	.	1r	.	8cc\L	p	8ccc\L	p	1r	.	1r	.	1r	.	1r	.	1r	1r	1r	.	1r	1r	1r	.	1r	.	00r
.	.	.	.	.	8bn\	.	8bbn\	.	.	.	.	.	.	.	.	.	.	.	.	.	.	.	.	.	.	.	.
!	!	!	!	!	!	!	!LO:TX:b:i:t=dol&colon;	!	!	!	!	!	!	!	!	!	!	!	!	!	!	!	!	!	!	!	!
.	.	.	.	.	8dd\	.	8ddd\	.	.	.	.	.	.	.	.	.	.	.	.	.	.	.	.	.	.	.	.
.	.	.	.	.	8cc\J	.	8ccc\J	.	.	.	.	.	.	.	.	.	.	.	.	.	.	.	.	.	.	.	.
.	.	.	.	.	8b/L	.	8bb\L	.	.	.	.	.	.	.	.	.	.	.	.	.	.	.	.	.	.	.	.
.	.	.	.	.	8cc/	.	8ccc\	.	.	.	.	.	.	.	.	.	.	.	.	.	.	.	.	.	.	.	.
.	.	.	.	.	8b-X/	.	8bb-X\	.	.	.	.	.	.	.	.	.	.	.	.	.	.	.	.	.	.	.	.
.	.	.	.	.	8g/J	.	8gg\J	.	.	.	.	.	.	.	.	.	.	.	.	.	.	.	.	.	.	.	.
!LO:LB:g=original	!	!	!LO:LB:g=original	!	!LO:LB:g=original	!	!	!	!	!	!	!	!	!	!	!	!	!	!LO:LB:g=original	!	!	!	!	!	!	!	!
=29	=29	=29	=29	=29	=29	=29	=29	=29	=29	=29	=29	=29	=29	=29	=29	=29	=29	=29	=29	=29	=29	=29	=29	=29	=29	=29	=29
!	!	!	!	!	!	!	!	!	!	!	!LO:N:vis=4	!	!	!	!	!	!	!	!	!	!	!	!	!	!	!	!
4F\	3	.	4c\	.	4f/ 4a	.	8r	.	4.F\	Quo-	4.f\	Quo-	4.c/	Quo-	4.a\	Quo-	1r	1r	4r	.	4r	8F\L	4cc\	p	4aa\	.	.
.	.	.	.	.	.	.	16ff\LL	.	.	.	.	.	.	.	.	.	.	.	.	.	.	8G\	.	.	.	.	.
.	.	.	.	.	.	.	16gg\JJ	.	.	.	.	.	.	.	.	.	.	.	.	.	.	.	.	.	.	.	.
4r	.	.	4r	.	4r	.	4aa\	.	.	.	.	.	.	.	.	.	.	.	4f/	.	4cc\	8A\	8cc\L	.	8aa\L	.	.
.	.	.	.	.	.	.	.	.	8F\	-ni-	8f\	-ni-	8c/	-ni-	8a\	-ni-	.	.	.	.	.	8F\J	8cc\J	.	8aa\J	.	.
4C/	5	.	4c\	.	4g/ 4b-	.	8r	.	4C/	-am	4c\	-am	4B-/	-am	4g\	-am	.	.	4r	.	4r	8C/L	4b-\	.	4gg\	.	.
.	.	.	.	.	.	.	16cc\LL	.	.	.	.	.	.	.	.	.	.	.	.	.	.	8D/	.	.	.	.	.
.	.	.	.	.	.	.	16dd\JJ	.	.	.	.	.	.	.	.	.	.	.	.	.	.	.	.	.	.	.	.
4r	.	.	4r	.	4r	.	4een\	.	4C/	tu	4c\	tu	4B-/	tu	4g\	tu	.	.	4cc\	.	4cc\	8En/	8b-\L	.	8gg\L	.	.
.	.	.	.	.	.	.	.	.	.	.	.	.	.	.	.	.	.	.	.	.	.	8C/J	8b-\J	.	8gg\J	.	.
=30	=30	=30	=30	=30	=30	=30	=30	=30	=30	=30	=30	=30	=30	=30	=30	=30	=30	=30	=30	=30	=30	=30	=30	=30	=30	=30	=30
4F\	8 3	.	4c\	.	4f/ 4a	.	16ff\LL	.	2F\	so-	2f\	so-	2A/	So-	2g/	so-	1r	1r	4f/	.	4cc\	8F\L	4a\	.	4ff\	.	.
.	.	.	.	.	.	.	16gg\J	.	.	.	.	.	.	.	.	.	.	.	.	.	.	.	.	.	.	.	.
.	.	.	.	.	.	.	8aa\J	.	.	.	.	.	.	.	.	.	.	.	.	.	.	8G\	.	.	.	.	.
4F\	8 3	.	4c\	.	4f/ 4a	.	16ff\LL	.	.	.	.	.	.	.	.	.	.	.	4f/	.	4cc\	8A\	8a\L	.	8ff\L	.	.
.	.	.	.	.	.	.	16gg\J	.	.	.	.	.	.	.	.	.	.	.	.	.	.	.	.	.	.	.	.
.	.	.	.	.	.	.	8aa\J	.	.	.	.	.	.	.	.	.	.	.	.	.	.	8G\J	8a\J	.	8ff\J	.	.
!	!	!	!	!	!	!	!LO:LB:g=original	!	!	!	!	!	!	!	!	!	!	!	!	!	!	!	!	!	!	!	!
=-	=-	=-	=-	=-	=-	=-	=-	=-	=-	=-	=-	=-	=-	=-	=-	=-	=-	=-	=-	=-	=-	=-	=-	=-	=-	=-	=-
4F\	8 3	.	4c\	.	4f/ 4a	.	4ff\	.	4F\	-lus	4f\	-lus	4A/	-lus	4f/	-lus	.	.	4f/	.	4cc\	8F/L	4a\	.	4ff\	.	.
.	.	.	.	.	.	.	.	.	.	.	.	.	.	.	.	.	.	.	.	.	.	8C/	.	.	.	.	.
4r	.	.	4r	.	4r	.	4r	.	4r	.	4r	.	4r	.	4r	.	.	.	4r	.	4r	8AA/	8eeX\L	.	8gg\L	.	.
.	.	.	.	.	.	.	.	.	.	.	.	.	.	.	.	.	.	.	.	.	.	8FF/J	8ff\J	.	8aa\J	.	.
!	!	!	!	!	!	!	!	!	!	!	!	!	!	!	!	!	!	!	!	!	!	!LO:LB:g=original	!	!	!	!	!
=31	=31	=31	=31	=31	=31	=31	=31	=31	=31	=31	=31	=31	=31	=31	=31	=31	=31	=31	=31	=31	=31	=31	=31	=31	=31	=31	=31
*	*	*	*	*	*	*	*	*	*	*ij	*	*	*	*ij	*	*	*	*	*	*	*	*	*	*	*	*	*
4C/	5	.	4c\	.	4g/ 4b-	.	8r	.	2C/	so-	2c\	So-	2en\	So-	2g\	so-	1r	1r	4r	.	4r	8C/L	4eeX\	.	4gg\	.	.
.	.	.	.	.	.	.	16cc\LL	.	.	.	.	.	.	.	.	.	.	.	.	.	.	8D/	.	.	.	.	.
.	.	.	.	.	.	.	16dd\JJ	.	.	.	.	.	.	.	.	.	.	.	.	.	.	.	.	.	.	.	.
4r	.	.	4r	.	4r	.	4ee-\	.	.	.	.	.	.	.	.	.	.	.	4cc\	.	4cc\	8En/	8ee\L	.	8gg\L	.	.
.	.	.	.	.	.	.	.	.	.	.	.	.	.	.	.	.	.	.	.	.	.	8C/J	8ee\J	.	8gg\J	.	.
4F\	3	.	4c\	.	4f/ 4a	.	8r	.	2F\	-lus	2c\	-lus	2f\	-lus	2a\	-lus	.	.	4r	.	4r	8F\L	4ff\	.	4aa\	.	.
*	*	*	*	*	*	*	*	*	*	*Xij	*	*	*	*Xij	*	*	*	*	*	*	*	*	*	*	*	*	*
.	.	.	.	.	.	.	16ff\LL	.	.	.	.	.	.	.	.	.	.	.	.	.	.	8G\	.	.	.	.	.
.	.	.	.	.	.	.	16gg\JJ	.	.	.	.	.	.	.	.	.	.	.	.	.	.	.	.	.	.	.	.
4r	.	.	4r	.	4r	.	4aa\	.	.	.	.	.	.	.	.	.	.	.	4f/	.	4cc\	8A\	8ff\L	.	8aa\L	.	.
.	.	.	.	.	.	.	.	.	.	.	.	.	.	.	.	.	.	.	.	.	.	8F\J	8ff\J	.	8aa\J	.	.
!	!	!	!	!	!	!	!	!	!LO:PB:g=original	!	!	!	!	!	!	!	!	!	!	!	!	!	!	!	!	!	!
=32	=32	=32	=32	=32	=32	=32	=32	=32	=32	=32	=32	=32	=32	=32	=32	=32	=32	=32	=32	=32	=32	=32	=32	=32	=32	=32	=32
!	!	!	!	!	!	!	!	!	!	!	!LO:TX:t=P:problem=kropka z lewej strony nuty	!	!	!	!	!	!	!	!	!	!	!	!	!	!	!	!
4C/	5	.	4c\	.	4g/ 4b-	.	16ee-\LL	.	4.C/	do-	4.c\	do-	4.en\	Do-	4.g\	Do-	1r	1r	4cc\	.	4cc\	8En\L	4eeX\	.	4gg\	.	00r
.	.	.	.	.	.	.	16ff\J	.	.	.	.	.	.	.	.	.	.	.	.	.	.	.	.	.	.	.	.
.	.	.	.	.	.	.	8gg\J	.	.	.	.	.	.	.	.	.	.	.	.	.	.	8F\	.	.	.	.	.
4C/	5	.	4c\	.	4g/ 4b-	.	16ee-\LL	.	.	.	.	.	.	.	.	.	.	.	4cc\	.	4cc\	8A\	8ee\L	.	8gg\L	.	.
.	.	.	.	.	.	.	16ff\J	.	.	.	.	.	.	.	.	.	.	.	.	.	.	.	.	.	.	.	.
.	.	.	.	.	.	.	8gg\J	.	8C/	-mi-	8c\	-mi-	8e\	-mi-	8g\	-mi-	.	.	.	.	.	8E\J	8ee\J	.	8gg\J	.	.
4C/	5	.	4c\	.	4g/ 4b-	.	4ee-\	.	4C/	-nus	4c\	-nus	4e\	-nus	4g\	-nus	.	.	4cc\	.	4cc\	8C/L	4ee\	.	4gg\	.	.
.	.	.	.	.	.	.	.	.	.	.	.	.	.	.	.	.	.	.	.	.	.	8GG/	.	.	.	.	.
4r	.	.	4r	.	4r	.	4r	.	4r	.	4r	.	4r	.	4r	.	.	.	4r	.	4r	8EEn/	8cc\L	.	8eeX\L	.	.
.	.	.	.	.	.	.	.	.	.	.	.	.	.	.	.	.	.	.	.	.	.	8GG/J	8dd\J	.	8ff\J	.	.
!	!	!	!	!	!	!	!	!	!	!	!	!	!	!	!LO:LB:g=original	!	!	!	!	!	!	!	!LO:LB:g=original	!	!	!	!
=33	=33	=33	=33	=33	=33	=33	=33	=33	=33	=33	=33	=33	=33	=33	=33	=33	=33	=33	=33	=33	=33	=33	=33	=33	=33	=33	=33
4c\	.	.	4cc\	.	4g/ 4b-	.	8r	.	2c\	so-	2c\	tu	2.en\	tu	2.g\	tu	1r	1r	4r	.	4r	8C\L	4eeX\	.	4gg\	.	.
.	.	.	.	.	.	.	16cc\LL	.	.	.	.	.	.	.	.	.	.	.	.	.	.	8D\	.	.	.	.	.
.	.	.	.	.	.	.	16dd\JJ	.	.	.	.	.	.	.	.	.	.	.	.	.	.	.	.	.	.	.	.
4r	.	.	4r	.	4r	.	4ee-\	.	.	.	.	.	.	.	.	.	.	.	4cc\	.	4cc\	8En\	8ee\L	.	8gg\L	.	.
.	.	.	.	.	.	.	.	.	.	.	.	.	.	.	.	.	.	.	.	.	.	8C\J	8ee\J	.	8gg\J	.	.
4B-\	4	.	4b-\	.	4g/ 4b-	.	8r	.	2B-\	-lus	2B-\	so-	.	.	.	.	.	.	4r	.	4r	8E\L	4ee\	.	4gg\	.	.
.	.	.	.	.	.	.	16ee-\LL	.	.	.	.	.	.	.	.	.	.	.	.	.	.	8F\	.	.	.	.	.
.	.	.	.	.	.	.	16ff\JJ	.	.	.	.	.	.	.	.	.	.	.	.	.	.	.	.	.	.	.	.
4r	.	.	4r	.	4r	.	4gg\	.	.	.	.	.	8f\L	so-	8a\L	so-	.	.	4cc\	.	4cc\	8G\	8ff\L	.	8aa\L	.	.
.	.	.	.	.	.	.	.	.	.	.	.	.	8g\J	.	8b-\J	.	.	.	.	.	.	8E\J	8gg\J	.	8bb-\J	.	.
!	!	!	!	!	!	!	!	!	!	!	!	!	!LO:LB:g=original	!	!	!	!	!	!	!	!	!	!	!	!	!	!
=34	=34	=34	=34	=34	=34	=34	=34	=34	=34	=34	=34	=34	=34	=34	=34	=34	=34	=34	=34	=34	=34	=34	=34	=34	=34	=34	=34
4A\	6	.	4a\	.	4a/ 4cc	.	8r	.	2A\	Do-	2c\	-lus	2a\	-lus	2cc\	-lus	1r	1r	4r	.	4r	8F\L	4aa\	.	4ccc\	.	.
.	.	.	.	.	.	.	16ff\LL	.	.	.	.	.	.	.	.	.	.	.	.	.	.	8G\	.	.	.	.	.
.	.	.	.	.	.	.	16gg\JJ	.	.	.	.	.	.	.	.	.	.	.	.	.	.	.	.	.	.	.	.
4r	.	.	4r	.	4r	.	4aa\	.	.	.	.	.	.	.	.	.	.	.	4f/	.	4cc\	8A\	8aa\L	.	8ccc\L	.	.
.	.	.	.	.	.	.	.	.	.	.	.	.	.	.	.	.	.	.	.	.	.	8F\J	8aa\J	.	8ccc\J	.	.
4B-\	.	.	4b-\	.	4d/ 4b-	.	8r	.	2B-\	-mi-	2B-\	al-	8a\L	al-	8cc#X\L	al-	.	.	4r	.	4r	8B-\L	8aa\L	.	8ccc#X\L	.	.
.	.	.	.	.	.	.	16gg\LL	.	.	.	.	.	8b-\	.	8dd\	.	.	.	.	.	.	8c\	8bb-\	.	8ddd\	.	.
.	.	.	.	.	.	.	16aa\JJ	.	.	.	.	.	.	.	.	.	.	.	.	.	.	.	.	.	.	.	.
4r	.	.	4ryy	.	4r	.	4bb-\	.	.	.	.	.	8d\	.	8b-\	.	.	.	4b-\	.	4dd\	8d\	8dd\	.	8bb-\	.	.
.	.	.	.	.	.	.	.	.	.	.	.	.	8B-\J	.	8g\J	.	.	.	.	.	.	8B-\J	8b-\J	.	8gg\J	.	.
!	!	!	!	!	!	!	!LO:LB:g=original	!	!	!	!	!	!	!	!	!	!	!	!	!	!LO:LB:g=original	!	!	!	!LO:LB:g=original	!	!
=35	=35	=35	=35	=35	=35	=35	=35	=35	=35	=35	=35	=35	=35	=35	=35	=35	=35	=35	=35	=35	=35	=35	=35	=35	=35	=35	=35
!	!	!	!	!	!	!	!	!	!LO:TX:t=P:problem=brak t. 35	!	!	!	!	!	!	!	!	!	!	!	!	!	!	!	!	!	!
4c\	4	.	4cc\	.	4f/ 4a	.	8r	.	1ryy	.	2c\	-tis-	2c/	-tis-	2a\	-tiſ-	1r	1r	4r	.	4r	8F\L	4cc\	.	4aa\	.	.
.	.	.	.	.	.	.	16ff\LL	.	.	.	.	.	.	.	.	.	.	.	.	.	.	8G\	.	.	.	.	.
.	.	.	.	.	.	.	16gg\JJ	.	.	.	.	.	.	.	.	.	.	.	.	.	.	.	.	.	.	.	.
4r	.	.	4r	.	4r	.	4aa\	.	.	.	.	.	.	.	.	.	.	.	4cc\	.	4cc\	8A\	8cc\L	.	8aa\L	.	.
.	.	.	.	.	.	.	.	.	.	.	.	.	.	.	.	.	.	.	.	.	.	8F\J	8cc\J	.	8aa\J	.	.
4C/	.	.	4c/	.	4g/ 4b-	.	8r	.	.	.	2c\	-ſi-	2B-/	-ſi-	2g\	-si-	.	.	4r	.	4r	8C/L	4b-\	.	4gg\	.	.
.	.	.	.	.	.	.	16cc\LL	.	.	.	.	.	.	.	.	.	.	.	.	.	.	8D/	.	.	.	.	.
.	.	.	.	.	.	.	16dd\JJ	.	.	.	.	.	.	.	.	.	.	.	.	.	.	.	.	.	.	.	.
4r	.	.	4r	.	4r	.	4een\	.	.	.	.	.	.	.	.	.	.	.	4cc\	.	4cc\	8En/	8b-\L	.	8gg\L	.	.
.	.	.	.	.	.	.	.	.	.	.	.	.	.	.	.	.	.	.	.	.	.	8C/J	8b-\J	.	8gg\J	.	.
!LO:LB:g=original	!	!	!LO:LB:g=original	!	!LO:LB:g=original	!	!	!	!	!	!LO:LB:g=original	!	!	!	!	!	!	!	!	!	!	!LO:LB:g=original	!	!	!	!	!LO:LB:g=original
=36	=36	=36	=36	=36	=36	=36	=36	=36	=36	=36	=36	=36	=36	=36	=36	=36	=36	=36	=36	=36	=36	=36	=36	=36	=36	=36	=36
4F\	8	.	4f\	.	4f/ 4a	.	4ff\	.	4F\	-nus	4c\	-mus	4A/	-mus	4f/	-mus	1r	1r	4f/	.	4cc\	4F\	4a\	.	4ff\	.	2r
!	!	!	!	!	!	!LO:DY:b	!	!LO:DY:b:t=fr	!	!	!	!	!	!	!	!	!	!	!	!	!	!	!	!	!	!	!
4r	.	.	4r	.	4r	f	4r	f	4r	.	4r	.	4r	.	4r	.	.	.	4r	.	4r	4r	4r	.	4r	.	.
4D'\	1	.	4d\	.	4d/	.	4dd\	.	2r	.	2r	.	2r	.	2r	.	.	.	4d/	.	4dd\	4D\	4d/	.	4dd\	.	4dd\
4D'\	1	.	4d\	.	4d/	.	4dd\	.	.	.	.	.	.	.	.	.	.	.	4d/	.	4dd\	4D\	4d/	.	4dd\	.	4dd\
=37	=37	=37	=37	=37	=37	=37	=37	=37	=37	=37	=37	=37	=37	=37	=37	=37	=37	=37	=37	=37	=37	=37	=37	=37	=37	=37	=37
!	!	!LO:DY:b:t=for&colon;	!	!	!	!	!	!	!LO:TX:a:t=2.	!	!LO:TX:a:t=2	!	!LO:TX:a:t=2.	!	!LO:TX:a:t=2.	!	!	!	!LO:TX:a:t=2	!	!	!	!	!	!	!	!
4.G'\	.	f	4.g\	.	4.g/	.	4.gg\	.	0r	.	0r	.	0r	.	0r	.	1r	1r	0r	.	0r	4.G\	4.g/	.	4.gg\	.	4.gg\
!	!	!	!	!	!	!	!	!	!	!	!	!	!	!	!	!	!	!	!	!	!	!	!LO:SIC:v:s=8f#/	!	!	!	!
8F#X'\	.	.	8f#X\	.	8f#X/	.	8ff#X\	.	.	.	.	.	.	.	.	.	.	.	.	.	.	8F#X\	8f/	.	8ff#X\	.	8ff#X\
8G'\L	.	.	8g\L	.	8g/L	.	8gg\L	.	.	.	.	.	.	.	.	.	.	.	.	.	.	8G\L	8g/L	.	8gg\L	.	8gg\L
8F#'\	.	.	8f#\	.	8f#/	.	8ff#\	.	.	.	.	.	.	.	.	.	.	.	.	.	.	8F#\	8f/	.	8ff#\	.	8ff#\
8G'\	.	.	8g\	.	8g/	.	8gg\	.	.	.	.	.	.	.	.	.	.	.	.	.	.	8G\	8g/	.	8gg\	.	8gg\
8A'\J	.	.	8a\J	.	8a/J	.	8aa\J	.	.	.	.	.	.	.	.	.	.	.	.	.	.	8A\J	8a/J	.	8aa\J	.	8aa\J
!	!	!	!	!	!	!	!	!	!	!	!	!	!	!	!	!	!	!	!	!	!	!	!LO:PB:g=original	!	!	!	!
=38	=38	=38	=38	=38	=38	=38	=38	=38	=38	=38	=38	=38	=38	=38	=38	=38	=38	=38	=38	=38	=38	=38	=38	=38	=38	=38	=38
!	!	!	!	!	!	!	!	!	!	!	!	!	!	!	!	!	!	!	!	!	!	!LO:N:vis=4	!	!	!	!	!
4.B-'\	.	.	4.b-\	.	4.b-/	.	4.bb-\	.	.	.	.	.	.	.	.	.	1r	1r	.	.	.	4.B-\	4.b-\	.	4.bb-\	.	4.bb-\
8A'\	.	.	8a\	.	8a/	.	8aa\	.	.	.	.	.	.	.	.	.	.	.	.	.	.	8A\	8a\	.	8aa\	.	8aa\
8G'\L	.	.	8g\L	.	8g/L	.	8gg\L	.	.	.	.	.	.	.	.	.	.	.	.	.	.	8G\L	8g/L	.	8gg\L	.	8bb-\L
8D'\	.	.	8d\	.	8d/	.	8dd\	.	.	.	.	.	.	.	.	.	.	.	.	.	.	8D\	8d/	.	8dd\	.	8ddd\
8BB-'\	.	.	8B-\	.	8B-/	.	8b-\	.	.	.	.	.	.	.	.	.	.	.	.	.	.	8BB-\	8B-/	.	8b-\	.	8bb-\
8D'\J	.	.	8d\J	.	8d/J	.	8dd\J	.	.	.	.	.	.	.	.	.	.	.	.	.	.	8D\J	8d/J	.	8dd\J	.	8ddd\J
!	!	!	!	!	!	!	!	!	!	!	!	!	!	!	!	!	!	!	!LO:LB:g=original	!	!	!	!	!	!	!	!
=39	=39	=39	=39	=39	=39	=39	=39	=39	=39	=39	=39	=39	=39	=39	=39	=39	=39	=39	=39	=39	=39	=39	=39	=39	=39	=39	=39
!	!	!LO:DY:b	!	!LO:DY:b:t=p&colon;	!	!	!	!	!	!	!	!	!	!	!	!	!	!	!	!	!	!	!	!LO:DY:t=p.	!	!LO:DY:t=pia	!
4G\	3	p	4g\	p	8r	.	8r	.	2r	.	2r	.	2r	.	2r	.	1r	1r	4r	.	4r	8G\L	8g\L	p	8g\L	p	8gg\L
.	.	.	.	.	16g/LL	.	16gg\LL	.	.	.	.	.	.	.	.	.	.	.	.	.	.	8B-\J	8b-\J	.	8b-\J	.	8bb-\J
.	.	.	.	.	16a/JJ	.	16aa\JJ	.	.	.	.	.	.	.	.	.	.	.	.	.	.	.	.	.	.	.	.
4r	.	.	4r	.	4b-/	.	4bb-\	.	.	.	.	.	.	.	.	.	.	.	4d/	.	4dd\	4d\	4dd\	.	4dd\	.	4ddd\
4G\	3	.	4g\	.	8r	.	8r	.	4r	.	4r	.	4r	.	4r	.	.	.	4r	.	4r	8G\L	8g\L	.	8g\L	.	8gg\L
.	.	.	.	.	16g/LL	.	16gg\LL	.	.	.	.	.	.	.	.	.	.	.	.	.	.	8B-\J	8b-\J	.	8b-\J	.	8bb-\J
.	.	.	.	.	16a/JJ	.	16aa\JJ	.	.	.	.	.	.	.	.	.	.	.	.	.	.	.	.	.	.	.	.
4r	.	.	4r	.	4b-/	.	4bb-\	.	4G\	Cum	4d\	Cum	4d\	Cum	4b-\	Cum	.	.	4d/	.	4dd\	4d\	4dd\	.	4dd\	.	4ddd\
!	!	!	!	!	!	!	!LO:LB:g=original	!	!	!	!	!	!	!	!	!	!	!	!	!	!	!	!	!	!	!	!
=40	=40	=40	=40	=40	=40	=40	=40	=40	=40	=40	=40	=40	=40	=40	=40	=40	=40	=40	=40	=40	=40	=40	=40	=40	=40	=40	=40
4G\	3	.	4g\	.	8r	.	8r	.	2G\	San-	2d\	san-	2d\	San-	2b-\	San-	1r	1r	4r	.	4r	8G\L	8g\L	.	8g\L	.	8gg\L
.	.	.	.	.	16g/LL	.	16gg\LL	.	.	.	.	.	.	.	.	.	.	.	.	.	.	8B-\J	8b-\J	.	8b-\J	.	8bb-\J
.	.	.	.	.	16a/JJ	.	16aa\JJ	.	.	.	.	.	.	.	.	.	.	.	.	.	.	.	.	.	.	.	.
4r	.	.	4r	.	4.b-/	.	4.bb-\	.	.	.	.	.	.	.	.	.	.	.	4d/	.	4dd\	4d\	4dd\	.	4dd\	.	4ddd\
!	!	!	!	!	!	!	!	!	!	!	!	!	!	!	!	!	!	!	!	!	!	!LO:TX:a:t=bis&colon;	!	!	!	!	!
4G\	3	.	4g\	.	.	.	.	.	2G\	-cto	2d\	-cto	2d\	-cto	2b-\	-cto	.	.	4r	.	4r	8G\L	8g\L	.	8g\L	.	8gg\L
!	!	!	!	!	!LO:LB:g=original	!	!	!	!	!	!	!	!	!	!	!	!	!	!	!	!	!	!	!	!	!	!
=-	=-	=-	=-	=-	=-	=-	=-	=-	=-	=-	=-	=-	=-	=-	=-	=-	=-	=-	=-	=-	=-	=-	=-	=-	=-	=-	=-
.	.	.	.	.	8a/L	.	8aa\L	.	.	.	.	.	.	.	.	.	.	.	.	.	.	8B-\J	8b-\J	.	8b-\J	.	8bb-\J
4r	.	.	4r	.	8g/	.	8gg\	.	.	.	.	.	.	.	.	.	.	.	4d/	.	4dd\	4d\	4dd\	.	4dd\	.	4ddd\
.	.	.	.	.	8f#X/J	.	8ff#X\J	.	.	.	.	.	.	.	.	.	.	.	.	.	.	.	.	.	.	.	.
!	!	!	!	!	!	!	!	!	!LO:LB:g=original	!	!	!	!	!	!	!	!	!	!	!	!	!	!	!	!	!	!
=41	=41	=41	=41	=41	=41	=41	=41	=41	=41	=41	=41	=41	=41	=41	=41	=41	=41	=41	=41	=41	=41	=41	=41	=41	=41	=41	=41
4G\	3	.	4g\	.	8g/L	.	8gg\L	.	4.G\	spi-	4.d\	spi-	4.d\	spi-	4.b-\	spi-	1r	1r	4r	.	4r	8G\L	8g\L	.	8g\L	.	8gg\L
.	.	.	.	.	8f#X/	.	8ff#X\	.	.	.	.	.	.	.	.	.	.	.	.	.	.	8B-\J	8b-\J	.	8b-\J	.	8bb-\J
4r	.	.	4r	.	8g/	.	8gg\	.	.	.	.	.	.	.	.	.	.	.	4d/	.	4dd\	4d\	4dd\	.	4dd\	.	4ddd\
.	.	.	.	.	8a/J	.	8aa\J	.	8G\	-ri-	8d\	-ri-	8d\	-ri-	8b-\	-ri-	.	.	.	.	.	.	.	.	.	.	.
4G\	3	.	4g\	.	8b-\L	.	8bb-\L	.	4G\	-tu	4d\	-tu	4d\	-tu	4b-\	-tu	.	.	4r	.	4r	8G\L	8g\L	.	8g\L	.	8gg\L
.	.	.	.	.	8a\	.	8aa\	.	.	.	.	.	.	.	.	.	.	.	.	.	.	8B-\J	8b-\J	.	8b-\J	.	8bb-\J
!	!	!	!	!	!	!	!	!	!	!	!	!	!	!	!	!	!	!	!	!	!	!	!LO:TX:a:t=bis	!	!LO:TX:b:t=Werte.	!	!
4r	.	.	4r	.	8b-\	.	8bb-\	.	4r	.	4r	.	4r	.	4r	.	.	.	4d/	.	4dd\	4d\	4dd\	.	4dd\	.	4ddd\
.	.	.	.	.	8cc\J	.	8ccc\J	.	.	.	.	.	.	.	.	.	.	.	.	.	.	.	.	.	.	.	.
!LO:LB:g=original	!	!	!	!	!	!	!	!	!	!	!	!	!	!	!	!	!LO:LB:g=original	!	!	!	!	!	!	!	!LO:PB:g=original	!	!
=42	=42	=42	=42	=42	=42	=42	=42	=42	=42	=42	=42	=42	=42	=42	=42	=42	=42	=42	=42	=42	=42	=42	=42	=42	=42	=42	=42
!	!	!	!	!	!	!	!	!LO:DY:b:t=fr	!	!	!	!	!	!	!	!	!	!	!	!	!	!	!	!LO:DY:b:t=for:rj	!	!LO:DY:t=for.	!
4B-\	5 3	.	4b-\	.	8r	.	8r	f	2r	.	2r	.	2r	.	2r	.	4r	4r	4r	.	4r	8B-\L	8B-/L	f	8b-\L	f	8bb-\L
.	.	.	.	.	16b-\LL	.	16bb-\LL	.	.	.	.	.	.	.	.	.	.	.	.	.	.	8d\J	8d/J	.	8dd\J	.	8ddd\J
.	.	.	.	.	16cc\JJ	.	16ccc\JJ	.	.	.	.	.	.	.	.	.	.	.	.	.	.	.	.	.	.	.	.
4r	.	.	4r	.	4dd\	.	4ddd\	.	.	.	.	.	.	.	.	.	4Ra/	4b-\	4B-/	.	4b-\	4f\	4f/	.	4ff\	.	4fff\
!	!	!	!	!	!	!	!	!	!	!	!	!	!	!	!	!	!	!	!	!	!	!	!LO:LB:g=original	!	!	!	!
=-	=-	=-	=-	=-	=-	=-	=-	=-	=-	=-	=-	=-	=-	=-	=-	=-	=-	=-	=-	=-	=-	=-	=-	=-	=-	=-	=-
4B-\	5 3	.	4b-\	.	8r	.	8r	.	4r	.	4r	.	4r	.	4r	.	4r	4r	4r	.	4r	8B-\L	8B-/L	.	8b-\L	.	8bb-\L
.	.	.	.	.	16b-\LL	.	16bb-\LL	.	.	.	.	.	.	.	.	.	.	.	.	.	.	8d\J	8d/J	.	8dd\J	.	8ddd\J
.	.	.	.	.	16cc\JJ	.	16ccc\JJ	.	.	.	.	.	.	.	.	.	.	.	.	.	.	.	.	.	.	.	.
!	!	!	!	!	!LO:TX:a:t=bis	!	!	!	!	!	!	!	!	!	!	!	!	!	!LO:TX:a:t=bis	!	!	!	!	!	!	!	!
4r	.	.	4r	.	4dd\	.	4ddd\	.	4B-\	Cum	4f\	Cum	4f\	Cum	4dd\	Cum	4Ra/	4b-\	4B-/	.	4b-\	4f\	4f/	.	4ff\	.	4fff\
!	!	!	!LO:LB:g=original	!	!	!	!	!	!	!	!	!	!	!	!	!	!	!LO:LB:g=original	!	!	!LO:LB:g=original	!	!	!	!	!	!LO:LB:g=original
=43	=43	=43	=43	=43	=43	=43	=43	=43	=43	=43	=43	=43	=43	=43	=43	=43	=43	=43	=43	=43	=43	=43	=43	=43	=43	=43	=43
4B-\	5 3	.	4b-\	.	8r	.	8r	.	2B-\	San-	2f\	san-	2f\	san-	2dd\	san-	4r	4r	4r	.	4r	8B-\L	8B-/L	.	8b-\L	.	8bb-\L
.	.	.	.	.	16b-\LL	.	16bb-\LL	.	.	.	.	.	.	.	.	.	.	.	.	.	.	8d\J	8d/J	.	8dd\J	.	8ddd\J
.	.	.	.	.	16cc\JJ	.	16ccc\JJ	.	.	.	.	.	.	.	.	.	.	.	.	.	.	.	.	.	.	.	.
4r	.	.	4r	.	4.dd\	.	4.ddd\	.	.	.	.	.	.	.	.	.	4Ra/	4b-\	4B-/	.	4b-\	4f\	4f/	.	4ff\	.	4fff\
4B-\	5 3	.	4b-\	.	.	.	.	.	2B-\	-cto	2f\	-cto	2f\	-cto	2dd\	-cto	4r	4r	4r	.	4r	8B-\L	8B-/L	.	8b-\L	.	8bb-\L
.	.	.	.	.	8cc\L	.	8ccc\L	.	.	.	.	.	.	.	.	.	.	.	.	.	.	8d\J	8d/J	.	8dd\J	.	8ddd\J
4r	.	.	4r	.	8b-\	.	8bb-\	.	.	.	.	.	.	.	.	.	4Ra/	4b-\	4B-/	.	4b-\	4f\	4f/	.	4ff\	.	4fff\
.	.	.	.	.	8a\J	.	8aa\J	.	.	.	.	.	.	.	.	.	.	.	.	.	.	.	.	.	.	.	.
!	!	!	!	!	!	!	!	!	!	!	!	!	!LO:LB:g=original	!	!LO:LB:g=original	!	!	!	!	!	!	!	!	!	!	!	!
=44	=44	=44	=44	=44	=44	=44	=44	=44	=44	=44	=44	=44	=44	=44	=44	=44	=44	=44	=44	=44	=44	=44	=44	=44	=44	=44	=44
!	!	!	!	!	!	!	!	!	!	!	!LO:TX:t=P:problem=kropka z lewej strony nuty	!	!	!	!	!	!	!	!	!	!	!	!	!	!	!	!
4B-\	5 3	.	4b-\	.	8b-\L	.	8bb-\L	.	4.B-\	Spi-	4.f\	spi-	4.f\	Spi-	4.dd\	spi-	4r	4r	4r	.	4r	8B-\L	8B-/L	.	8b-\L	.	8bb-\L
.	.	.	.	.	8a\	.	8aa\	.	.	.	.	.	.	.	.	.	.	.	.	.	.	8d\J	8d/J	.	8dd\J	.	8ddd\J
4r	.	.	4r	.	8b-\	.	8bb-\	.	.	.	.	.	.	.	.	.	4Ra/	4b-\	4B-/	.	4b-\	4f\	4f/	.	4ff\	.	4fff\
.	.	.	.	.	8cc\J	.	8ccc\J	.	8B-\	-ri-	8f\	-ri-	8f\	-ri-	8dd\	-ri-	.	.	.	.	.	.	.	.	.	.	.
!	!	!	!	!	!LO:LB:g=original	!	!LO:LB:g=original	!	!	!	!	!	!	!	!	!	!	!	!	!	!	!	!	!	!	!	!
=-	=-	=-	=-	=-	=-	=-	=-	=-	=-	=-	=-	=-	=-	=-	=-	=-	=-	=-	=-	=-	=-	=-	=-	=-	=-	=-	=-
4B-\	5 3	.	4b-\	.	8dd\L	.	8ddd\L	.	4B-\	-tu	4f\	-tu	4f\	-tu	4dd\	-tu	4r	4r	4r	.	4r	8B-\L	8B-/L	.	8b-\L	.	8bb-\L
.	.	.	.	.	8cc\	.	8ccc\	.	.	.	.	.	.	.	.	.	.	.	.	.	.	8d\J	8d/J	.	8dd\J	.	8ddd\J
4r	.	.	4r	.	8dd\	.	8ddd\	.	4B-\	in	4f\	Cum	4f\	Cum	4dd\	Cum	4Ra/	4b-\	4B-/	.	4b-\	4f\	4f/	.	4ff\	.	4fff\
.	.	.	.	.	8ee-\J	.	8eee-\J	.	.	.	.	.	.	.	.	.	.	.	.	.	.	.	.	.	.	.	.
!	!	!	!	!	!	!	!	!	!	!	!	!	!	!	!	!	!	!	!	!	!	!LO:LB:g=original	!	!	!	!	!
=45	=45	=45	=45	=45	=45	=45	=45	=45	=45	=45	=45	=45	=45	=45	=45	=45	=45	=45	=45	=45	=45	=45	=45	=45	=45	=45	=45
4B-\	5 3	.	4b-\	.	4ff\	.	4fff\	.	4B-\	glo-	4f\	san-	4dd\	san-	4ff\	san-	4Ra/	4b-\	4B-/	.	4b-\	4f\	4dd\	.	4ff\	.	4fff\
*	*	*	*	*	*tremolo	*	*tremolo	*	*	*	*	*	*	*	*	*	*	*	*	*	*	*	*	*	*	*	*
4E-\	8	.	4e-\	.	16ccc\LL	.	16eee-\LL	.	4E-\	-ri-	4g\	-cto	4cc\	-cto	4ee-\	-cto	4r	4r	4f/	.	4cc\	4e-\	4cc\	.	4ee-\	.	4eee-\
.	.	.	.	.	16ccc\	.	16eee-\	.	.	.	.	.	.	.	.	.	.	.	.	.	.	.	.	.	.	.	.
.	.	.	.	.	16ccc\	.	16eee-\	.	.	.	.	.	.	.	.	.	.	.	.	.	.	.	.	.	.	.	.
.	.	.	.	.	16ccc\JJ	.	16eee-\JJ	.	.	.	.	.	.	.	.	.	.	.	.	.	.	.	.	.	.	.	.
4F\	6	.	4f\	.	16bb-\LL	.	16ddd\LL	.	4F\	-a	4f\	Spi-	4b-\	spi-	4dd\	spi-	4Ra/	4b-\	4b-\	.	4dd\	4d\	4b-\	.	4dd\	.	4ddd\
.	.	.	.	.	16bb-\	.	16ddd\	.	.	.	.	.	.	.	.	.	.	.	.	.	.	.	.	.	.	.	.
.	.	.	.	.	16bb-\	.	16ddd\	.	.	.	.	.	.	.	.	.	.	.	.	.	.	.	.	.	.	.	.
.	.	.	.	.	16bb-\JJ	.	16ddd\JJ	.	.	.	.	.	.	.	.	.	.	.	.	.	.	.	.	.	.	.	.
4F\	5	.	4f\	.	16aa\LL	.	16ccc\LL	.	4F\	De-	4f\	-ri-	4a\	-ri-	4cc\	-ri-	4Re/	8f/L	4f/	.	4cc\	4c\	4a\	.	4cc\	.	4ccc\
.	.	.	.	.	16aa\	.	16ccc\	.	.	.	.	.	.	.	.	.	.	.	.	.	.	.	.	.	.	.	.
.	.	.	.	.	16aa\	.	16ccc\	.	.	.	.	.	.	.	.	.	.	8f/J	.	.	.	.	.	.	.	.	.
.	.	.	.	.	16aa\JJ	.	16ccc\JJ	.	.	.	.	.	.	.	.	.	.	.	.	.	.	.	.	.	.	.	.
*	*	*	*	*	*Xtremolo	*	*Xtremolo	*	*	*	*	*	*	*	*	*	*	*	*	*	*	*	*	*	*	*	*
!	!	!	!	!	!LO:LB:g=original	!	!	!	!	!	!LO:LB:g=original	!	!	!	!	!	!	!	!	!	!	!	!	!	!	!	!
=46	=46	=46	=46	=46	=46	=46	=46	=46	=46	=46	=46	=46	=46	=46	=46	=46	=46	=46	=46	=46	=46	=46	=46	=46	=46	=46	=46
!	!	!	!	!	!LO:TX:t=P:problem=t. 46-52 zapisane jako repetycja	!	!	!	!	!	!	!	!	!	!	!	!	!LO:TX:a:t=3	!LO:TX:t=P:problem=t. 46-52 zapisane jako repetycja	!	!LO:TX:t=P:problem=t. 46-52 zapisane jako repetycja	!LO:TX:t=P:problem=t. 46-52 zapisane jako repetycja	!	!	!	!LO:DY:b:t=pia	!LO:TX:t=P:problem=t. 46-52 zapisane jako repetycja
!	!	!	!	!	!	!	!	!	!	!	!	!	!	!	!	!	!LO:TX:a:t=3.	!	!	!	!	!	!LO:TX:t=P:problem=t. 46-52 zapisane jako repetycja	!LO:DY:b:t=p.:rj	!	!	!
4G\	3	.	4g\	.	8r	.	8r	.	4G\	-i	4d\	-tu	4b-\	-tu	4b-\	-tu	0r	0r	4r	.	4r	8G\L	8g\L	p	8g\L	p	8gg\L
.	.	.	.	.	16g/LL	.	16gg\LL	.	.	.	.	.	.	.	.	.	.	.	.	.	.	8B-\J	8b-\J	.	8b-\J	.	8bb-\J
.	.	.	.	.	16a/JJ	.	16aa\JJ	.	.	.	.	.	.	.	.	.	.	.	.	.	.	.	.	.	.	.	.
4r	.	.	4r	.	4b-/	.	4bb-\	.	4r	.	4r	.	4r	.	4r	.	.	.	4d/	.	4dd\	4d\	4dd\	.	4dd\	.	4ddd\
4G\	3	.	4g\	.	8r	.	8r	.	4r	.	4r	.	4r	.	4r	.	.	.	4r	.	4r	8G\L	8g\L	.	8g\L	.	8gg\L
.	.	.	.	.	16g/LL	.	16gg\LL	.	.	.	.	.	.	.	.	.	.	.	.	.	.	8B-\J	8b-\J	.	8b-\J	.	8bb-\J
.	.	.	.	.	16a/JJ	.	16aa\JJ	.	.	.	.	.	.	.	.	.	.	.	.	.	.	.	.	.	.	.	.
*	*	*	*	*	*	*	*	*	*	*	*	*	*	*ij	*	*	*	*	*	*	*	*	*	*	*	*	*
4r	.	.	4r	.	4b-/	.	4bb-\	.	4G\	Cum	4d\	Cum	4d\	Cum	4b-\	Cum	.	.	4d/	.	4dd\	4d\	4dd\	.	4dd\	.	4ddd\
=47	=47	=47	=47	=47	=47	=47	=47	=47	=47	=47	=47	=47	=47	=47	=47	=47	=47	=47	=47	=47	=47	=47	=47	=47	=47	=47	=47
4G\	3	.	4g\	.	8r	.	8r	.	2G\	San-	2d\	San-	2d\	san-	2b-\	san-	.	.	4r	.	4r	8G\L	8g\L	.	8g\L	.	8gg\L
.	.	.	.	.	16g/LL	.	16gg\LL	.	.	.	.	.	.	.	.	.	.	.	.	.	.	8B-\J	8b-\J	.	8b-\J	.	8bb-\J
.	.	.	.	.	16a/JJ	.	16aa\JJ	.	.	.	.	.	.	.	.	.	.	.	.	.	.	.	.	.	.	.	.
4r	.	.	4r	.	4.b-/	.	4.bb-\	.	.	.	.	.	.	.	.	.	.	.	4d/	.	4dd\	4d\	4dd\	.	4dd\	.	4ddd\
4G\	3	.	4g\	.	.	.	.	.	2G\	-cto	2d\	-cto	2d\	-cto	2b-\	-cto	.	.	4r	.	4r	8G\L	8g\L	.	8g\L	.	8gg\L
.	.	.	.	.	8a/L	.	8aa\L	.	.	.	.	.	.	.	.	.	.	.	.	.	.	8B-\J	8b-\J	.	8b-\J	.	8bb-\J
4r	.	.	4r	.	8g/	.	8gg\	.	.	.	.	.	.	.	.	.	.	.	4d/	.	4dd\	4d\	4dd\	.	4dd\	.	4ddd\
.	.	.	.	.	8f#X/J	.	8ff#X\J	.	.	.	.	.	.	.	.	.	.	.	.	.	.	.	.	.	.	.	.
!	!	!	!	!	!	!	!	!	!LO:LB:g=original	!	!	!	!	!	!	!	!	!	!	!	!	!	!	!	!	!	!
=48	=48	=48	=48	=48	=48	=48	=48	=48	=48	=48	=48	=48	=48	=48	=48	=48	=48	=48	=48	=48	=48	=48	=48	=48	=48	=48	=48
4G\	3	.	4g\	.	8g/L	.	8gg\L	.	4.G\	Spi-	4.d\	spi-	4.d\	spi-	4.b-\	spi-	1r	1r	4r	.	4r	8G\L	8g\L	.	8g\L	.	8gg\L
.	.	.	.	.	8f#X/	.	8ff#X\	.	.	.	.	.	.	.	.	.	.	.	.	.	.	8B-\J	8b-\J	.	8b-\J	.	8bb-\J
4r	.	.	4r	.	8g/	.	8gg\	.	.	.	.	.	.	.	.	.	.	.	4d/	.	4dd\	4d\	4dd\	.	4dd\	.	4ddd\
.	.	.	.	.	8a/J	.	8aa\J	.	8G\	-ri-	8d\	-ri-	8d\	-ri-	8b-\	-ri-	.	.	.	.	.	.	.	.	.	.	.
4G\	3	.	4g\	.	8b-\L	.	8bb-\L	.	4G\	-tu	4d\	-tu	4d\	-tu	4b-\	-tu	.	.	4r	.	4r	8G\L	8g\L	.	8g\L	.	8gg\L
*	*	*	*	*	*	*	*	*	*	*	*	*	*	*Xij	*	*	*	*	*	*	*	*	*	*	*	*	*
.	.	.	.	.	8a\	.	8aa\	.	.	.	.	.	.	.	.	.	.	.	.	.	.	8B-\J	8b-\J	.	8b-\J	.	8bb-\J
4r	.	.	4r	.	8b-\	.	8bb-\	.	4r	.	4r	.	4r	.	4r	.	.	.	4d/	.	4dd\	4d\	4dd\	.	4dd\	.	4ddd\
.	.	.	.	.	8cc\J	.	8ccc\J	.	.	.	.	.	.	.	.	.	.	.	.	.	.	.	.	.	.	.	.
!LO:LB:g=original	!	!	!	!	!	!	!LO:LB:g=original	!	!	!	!	!	!	!	!	!	!	!	!	!	!	!	!	!	!	!	!
=49	=49	=49	=49	=49	=49	=49	=49	=49	=49	=49	=49	=49	=49	=49	=49	=49	=49	=49	=49	=49	=49	=49	=49	=49	=49	=49	=49
!	!	!	!	!	!	!	!	!	!	!	!	!	!	!	!	!	!	!	!	!	!	!	!	!LO:DY:b:t=for:rj	!	!	!
4B-\	5 3	.	4b-\	.	8r	.	8r	.	2r	.	2r	.	2r	.	2r	.	4r	4r	4r	.	4r	8B-\L	8B-/L	f	8b-\L	.	8bb-\L
.	.	.	.	.	16b-\LL	.	16bb-\LL	.	.	.	.	.	.	.	.	.	.	.	.	.	.	8d\J	8d/J	.	8dd\J	.	8ddd\J
.	.	.	.	.	16cc\JJ	.	16ccc\JJ	.	.	.	.	.	.	.	.	.	.	.	.	.	.	.	.	.	.	.	.
4r	.	.	4r	.	4dd\	.	4ddd\	.	.	.	.	.	.	.	.	.	4Ra/	4b-\	4B-/	.	4b-\	4f\	4f/	.	4ff\	.	4fff\
4B-\	5 3	.	4b-\	.	8r	.	8r	.	4r	.	4r	.	4r	.	4r	.	4r	4r	4r	.	4r	8B-\L	8B-/L	.	8b-\L	.	8bb-\L
.	.	.	.	.	16b-\LL	.	16bb-\LL	.	.	.	.	.	.	.	.	.	.	.	.	.	.	8d\J	8d/J	.	8dd\J	.	8ddd\J
.	.	.	.	.	16cc\JJ	.	16ccc\JJ	.	.	.	.	.	.	.	.	.	.	.	.	.	.	.	.	.	.	.	.
4r	.	.	4r	.	4dd\	.	4ddd\	.	4B-\	Cum	4f\	Cum	4f\	Cum	4dd\	Cum	4Ra/	4b-\	4B-/	.	4b-\	4f\	4f/	.	4ff\	.	4fff\
!	!	!	!LO:LB:g=original	!	!	!	!	!	!	!	!	!	!	!	!	!	!	!	!	!	!	!	!	!	!LO:LB:g=original	!	!
=50	=50	=50	=50	=50	=50	=50	=50	=50	=50	=50	=50	=50	=50	=50	=50	=50	=50	=50	=50	=50	=50	=50	=50	=50	=50	=50	=50
4B-\	5 3	.	4b-\	.	8r	.	8r	.	2B-\	San-	2f\	San-	2f\	san-	2dd\	san-	4r	4r	4r	.	4r	8B-\L	8B-/L	.	8b-\L	.	8bb-\L
.	.	.	.	.	16b-\LL	.	16bb-\LL	.	.	.	.	.	.	.	.	.	.	.	.	.	.	8d\J	8d/J	.	8dd\J	.	8ddd\J
.	.	.	.	.	16cc\JJ	.	16ccc\JJ	.	.	.	.	.	.	.	.	.	.	.	.	.	.	.	.	.	.	.	.
4r	.	.	4r	.	4.dd\	.	4.ddd\	.	.	.	.	.	.	.	.	.	4Ra/	4b-\	4B-/	.	4b-\	4f\	4f/	.	4ff\	.	4fff\
4B-\	5 3	.	4b-\	.	.	.	.	.	2B-\	-cto	2f\	-cto	2f\	-cto	2dd\	-cto	4r	4r	4r	.	4r	8B-\L	8B-/L	.	8b-\L	.	8bb-\L
.	.	.	.	.	8cc\L	.	8ccc\L	.	.	.	.	.	.	.	.	.	.	.	.	.	.	8d\J	8d/J	.	8dd\J	.	8ddd\J
4r	.	.	4r	.	8b-\	.	8bb-\	.	.	.	.	.	.	.	.	.	4Ra/	4b-\	4B-/	.	4b-\	4f\	4f/	.	4ff\	.	4fff\
.	.	.	.	.	8a\J	.	8aa\J	.	.	.	.	.	.	.	.	.	.	.	.	.	.	.	.	.	.	.	.
!	!	!	!	!	!	!	!	!	!	!	!	!	!LO:LB:g=original	!	!	!	!	!	!	!	!	!	!	!	!	!	!
=51	=51	=51	=51	=51	=51	=51	=51	=51	=51	=51	=51	=51	=51	=51	=51	=51	=51	=51	=51	=51	=51	=51	=51	=51	=51	=51	=51
4B-\	5 3	.	4b-\	.	8b-\L	.	8bb-\L	.	4.B-\	Spi-	4.f\	spi-	4.f\	spi-	4.dd\	spi-	4r	4r	4r	.	4r	8B-\L	8B-/L	.	8b-\L	.	8bb-\L
.	.	.	.	.	8a\	.	8aa\	.	.	.	.	.	.	.	.	.	.	.	.	.	.	8d\J	8d/J	.	8dd\J	.	8ddd\J
4r	.	.	4r	.	8b-\	.	8bb-\	.	.	.	.	.	.	.	.	.	4Ra/	4b-\	4B-/	.	4b-\	4f\	4f/	.	4ff\	.	4fff\
.	.	.	.	.	8cc\J	.	8ccc\J	.	8B-\	-ri-	8f\	-ri-	8f\	-ri-	8dd\	-ri-	.	.	.	.	.	.	.	.	.	.	.
4B-\	5 3	.	4b-\	.	8dd\L	.	8ddd\L	.	4B-\	-tu	4f\	-tu	4f\	-tu	4dd\	-tu	4r	4r	4r	.	4r	8B-\L	8B-/L	.	8b-\L	.	8bb-\L
.	.	.	.	.	8cc\	.	8ccc\	.	.	.	.	.	.	.	.	.	.	.	.	.	.	8d\J	8d/J	.	8dd\J	.	8ddd\J
4r	.	.	4r	.	8dd\	.	8ddd\	.	4B-\	Cum	4f\	Cum	4f\	Cum	4dd\	Cum	4Ra/	4b-\	4B-/	.	4b-\	4f\	4f/	.	4ff\	.	4fff\
.	.	.	.	.	8ee-\J	.	8eee-\J	.	.	.	.	.	.	.	.	.	.	.	.	.	.	.	.	.	.	.	.
=52	=52	=52	=52	=52	=52	=52	=52	=52	=52	=52	=52	=52	=52	=52	=52	=52	=52	=52	=52	=52	=52	=52	=52	=52	=52	=52	=52
*	*	*	*	*	*tremolo	*	*tremolo	*	*	*	*	*	*	*	*	*	*	*	*	*	*	*	*	*	*	*	*
!LO:TX:b:t=Tasto	!	!	!	!	!	!	!	!	!	!	!	!	!	!	!	!	!	!	!	!	!	!	!	!	!	!	!
4B-\	5 3	.	4b-\	.	4ff\	.	4fff\	.	4B-\	san-	4f\	san-	4dd\	san-	4ff\	san-	4Ra/	4b-\	4B-/	.	4b-\	4f\	4dd\	.	4ff\	.	4fff\
4E-\	8	.	4e-\	.	16ccc\LL	.	16eee-\LL	.	4E-\	-cto	4g\	-cto	4cc\	-cto	4ee-\	-cto	4r	4r	4f/	.	4cc\	4e-\	4cc\	.	4ee-\	.	4eee-\
.	.	.	.	.	16ccc\	.	16eee-\	.	.	.	.	.	.	.	.	.	.	.	.	.	.	.	.	.	.	.	.
.	.	.	.	.	16ccc\	.	16eee-\	.	.	.	.	.	.	.	.	.	.	.	.	.	.	.	.	.	.	.	.
.	.	.	.	.	16ccc\JJ	.	16eee-\JJ	.	.	.	.	.	.	.	.	.	.	.	.	.	.	.	.	.	.	.	.
4F\	6	.	4f\	.	16bb-\LL	.	16ddd\LL	.	4F\	spi-	4f\	Spi-	4b-\	spi-	4dd\	spi-	4Ra/	4b-\	4b-\	.	4dd\	4d\	4b-\	.	4dd\	.	4ddd\
.	.	.	.	.	16bb-\	.	16ddd\	.	.	.	.	.	.	.	.	.	.	.	.	.	.	.	.	.	.	.	.
.	.	.	.	.	16bb-\	.	16ddd\	.	.	.	.	.	.	.	.	.	.	.	.	.	.	.	.	.	.	.	.
.	.	.	.	.	16bb-\JJ	.	16ddd\JJ	.	.	.	.	.	.	.	.	.	.	.	.	.	.	.	.	.	.	.	.
4F\	5	.	4f\	.	16aa\LL	.	16ccc\LL	.	4F\	-ri-	4f\	-ri-	4a\	-ri-	4cc\	-ri-	4Re/	8f/L	4f/	.	4cc\	4c\	4a\	.	4cc\	.	4ccc\
.	.	.	.	.	16aa\	.	16ccc\	.	.	.	.	.	.	.	.	.	.	.	.	.	.	.	.	.	.	.	.
.	.	.	.	.	16aa\	.	16ccc\	.	.	.	.	.	.	.	.	.	.	8f/J	.	.	.	.	.	.	.	.	.
.	.	.	.	.	16aa\JJ	.	16ccc\JJ	.	.	.	.	.	.	.	.	.	.	.	.	.	.	.	.	.	.	.	.
*	*	*	*	*	*Xtremolo	*	*Xtremolo	*	*	*	*	*	*	*	*	*	*	*	*	*	*	*	*	*	*	*	*
!	!	!	!	!	!	!	!	!	!	!	!	!	!	!	!LO:LB:g=original	!	!	!	!	!	!	!	!	!	!	!	!
=53	=53	=53	=53	=53	=53	=53	=53	=53	=53	=53	=53	=53	=53	=53	=53	=53	=53	=53	=53	=53	=53	=53	=53	=53	=53	=53	=53
*	*	*	*tremolo	*	*	*	*	*	*	*	*	*	*	*	*	*	*	*	*	*	*	*	*	*	*	*	*
!	!	!	!	!	!	!LO:DY:b:t=p.	!	!	!	!	!	!	!	!	!	!	!	!	!	!LO:DY:b:t=Pia	!	!	!	!	!	!	!
!	!	!LO:DY:b	!	!	!LO:TX:t=P:problem=mixed beam	!	!	!	!	!	!	!	!	!	!	!	!	!LO:TX:t=P:problem=brak t. 53-60	!	!	!	!	!	!	!	!	!
4BB-/	.	p	8B-/L	.	8bb-\L	p	4bb-\	.	2B-\	-tu	2B-\	-tu	2b-\	-tu	2b-\	-tu	4Ra/	1ryy	2d/	p	2b-\	4B-\	4b-\	.	4b-\	.	4bb-\
.	.	.	8d/	.	8f/	.	.	.	.	.	.	.	.	.	.	.	.	.	.	.	.	.	.	.	.	.	.
!	!	!	!	!	!	!	!	!LO:DY:b:t=p.	!	!	!	!	!	!	!	!	!	!	!	!	!	!	!	!	!	!	!
4r	.	.	8B-/	.	8d/	.	4r	p	.	.	.	.	.	.	.	.	4r	.	.	.	.	4r	4r	.	4r	.	4r
.	.	.	8d/J	.	8f/J	.	.	.	.	.	.	.	.	.	.	.	.	.	.	.	.	.	.	.	.	.	.
*	*	*	*	*	*tremolo	*	*	*	*	*	*	*	*	*	*	*	*	*	*	*	*	*	*	*	*	*	*
*	*	*	*	*	*	*	*	*	*	*	*	*	*	*	*	*	*	*	*custos:f	*	*	*	*	*	*	*	*
4B-\	.	.	8B-/L	.	8d/L	.	8r	.	2B-\	in	2B-\	in	2d\	in	2b-\	in	2r	.	2d/	.	2b-\	2r	2r	.	2r	.	2r
.	.	.	8d/	.	8f/	.	8ff\L	.	.	.	.	.	.	.	.	.	.	.	.	.	.	.	.	.	.	.	.
4r	.	.	8B-/	.	8d/	.	8ff\	.	.	.	.	.	.	.	.	.	.	.	.	.	.	.	.	.	.	.	.
.	.	.	8d/J	.	8f/J	.	8ff\J	.	.	.	.	.	.	.	.	.	.	.	.	.	.	.	.	.	.	.	.
!	!	!	!	!	!	!	!LO:LB:g=original	!	!	!	!	!	!	!	!	!	!	!	!LO:LB:g=original	!	!	!	!	!	!	!	!
=54	=54	=54	=54	=54	=54	=54	=54	=54	=54	=54	=54	=54	=54	=54	=54	=54	=54	=54	=54	=54	=54	=54	=54	=54	=54	=54	=54
!	!	!	!	!	!	!	!	!	!	!	!	!	!	!	!	!	!LO:TX:a:t=7	!	!	!	!	!LO:TX:a:t=1	!LO:TX:a:t=7	!	!LO:TX:a:t=1	!	!LO:TX:a:t=1
4F\	.	.	8c/L	.	8e-/L	.	8ff\L	.	1F	glo-	1f	glo-	1e-	glo-	1cc	glo-	1r	1ryy	1f	.	1cc	1r	00r	.	1r	.	1r
.	.	.	8A/	.	8f/	.	8gg\	.	.	.	.	.	.	.	.	.	.	.	.	.	.	.	.	.	.	.	.
4r	.	.	8c/	.	8e-/	.	8aa\	.	.	.	.	.	.	.	.	.	.	.	.	.	.	.	.	.	.	.	.
.	.	.	8A/J	.	8f/J	.	8bb-\J	.	.	.	.	.	.	.	.	.	.	.	.	.	.	.	.	.	.	.	.
4FF/	.	.	8c/L	.	8e-/L	.	8ccc\L	.	.	.	.	.	.	.	.	.	.	.	.	.	.	.	.	.	.	.	.
.	.	.	8A/	.	8f/	.	8ddd\	.	.	.	.	.	.	.	.	.	.	.	.	.	.	.	.	.	.	.	.
4r	.	.	8c/	.	8e-/	.	8eee-\	.	.	.	.	.	.	.	.	.	.	.	.	.	.	.	.	.	.	.	.
.	.	.	8A/J	.	8f/J	.	8aa\J	.	.	.	.	.	.	.	.	.	.	.	.	.	.	.	.	.	.	.	.
!	!	!	!	!	!	!	!	!	!LO:LB:g=original	!	!LO:LB:g=original	!	!	!	!	!	!	!	!	!	!	!	!	!	!	!	!
=55	=55	=55	=55	=55	=55	=55	=55	=55	=55	=55	=55	=55	=55	=55	=55	=55	=55	=55	=55	=55	=55	=55	=55	=55	=55	=55	=55
4BB-/	.	.	8B-/L	.	8d/L	.	4.bb-\	.	1B-	-ri-	1B-	-ri-	1f	-ri-	1dd	-ri-	1r	1ryy	1b-	.	1dd	2r	.	.	2r	.	2r
.	.	.	8d/	.	8f/	.	.	.	.	.	.	.	.	.	.	.	.	.	.	.	.	.	.	.	.	.	.
4r	.	.	8B-/	.	8d/	.	.	.	.	.	.	.	.	.	.	.	.	.	.	.	.	.	.	.	.	.	.
.	.	.	8d/J	.	8f/J	.	8ddd\	.	.	.	.	.	.	.	.	.	.	.	.	.	.	.	.	.	.	.	.
4B-\	.	.	8B-/L	.	8d/L	.	4fff\	.	.	.	.	.	.	.	.	.	.	.	.	.	.	8r	.	.	8r	.	8r
!	!	!	!	!	!	!	!	!	!	!	!	!	!	!	!	!	!	!	!	!	!	!	!	!	!	!LO:DY:t=pia	!
.	.	.	8d/	.	8f/	.	.	.	.	.	.	.	.	.	.	.	.	.	.	.	.	8F\L	.	.	8f/L	p	8ff\L
4r	.	.	8B-/	.	8d/	.	4r	.	.	.	.	.	.	.	.	.	.	.	.	.	.	8F\	.	.	8f/	.	8ff\
.	.	.	8d/J	.	8f/J	.	.	.	.	.	.	.	.	.	.	.	.	.	.	.	.	8F\J	.	.	8f/J	.	8ff\J
=56	=56	=56	=56	=56	=56	=56	=56	=56	=56	=56	=56	=56	=56	=56	=56	=56	=56	=56	=56	=56	=56	=56	=56	=56	=56	=56	=56
!	!	!	!	!	!	!	!LO:TX:a:t=1.	!	!	!	!	!	!	!	!	!	!	!	!	!	!	!	!	!	!	!	!
4F\	.	.	8c/L	.	8e-/L	.	1r	.	1F	-a	1f	-a	1e-	-a	1cc	-a	1r	1ryy	1f	.	1cc	8F\L	.	.	8f/L	.	8ff\L
.	.	.	8A/	.	8f/	.	.	.	.	.	.	.	.	.	.	.	.	.	.	.	.	8G\	.	.	8g/	.	8gg\
4r	.	.	8c/	.	8e-/	.	.	.	.	.	.	.	.	.	.	.	.	.	.	.	.	8A\	.	.	8a/	.	8aa\
.	.	.	8A/J	.	8f/J	.	.	.	.	.	.	.	.	.	.	.	.	.	.	.	.	8B-\J	.	.	8b-/J	.	8bb-\J
4FF/	.	.	8c/L	.	8e-/L	.	.	.	.	.	.	.	.	.	.	.	.	.	.	.	.	8c\L	.	.	8cc\L	.	8ccc\L
.	.	.	8A/	.	8f/	.	.	.	.	.	.	.	.	.	.	.	.	.	.	.	.	8d\	.	.	8dd\	.	8ddd\
4r	.	.	8c/	.	8e-/	.	.	.	.	.	.	.	.	.	.	.	.	.	.	.	.	8e-\	.	.	8ee-\	.	8eee-\
.	.	.	8A/J	.	8f/J	.	.	.	.	.	.	.	.	.	.	.	.	.	.	.	.	8A\J	.	.	8a\J	.	8aa\J
*	*	*	*	*	*Xtremolo	*	*	*	*	*	*	*	*	*	*	*	*	*	*	*	*	*	*	*	*	*	*
!LO:LB:g=original	!	!	!LO:LB:g=original	!	!	!	!	!	!	!	!	!	!	!	!	!	!	!	!	!	!	!	!	!	!	!	!
=57	=57	=57	=57	=57	=57	=57	=57	=57	=57	=57	=57	=57	=57	=57	=57	=57	=57	=57	=57	=57	=57	=57	=57	=57	=57	=57	=57
!	!	!	!LO:TX:t=P:problem=t. 57-60 zapisane jako repetycja	!	!LO:TX:t=P:problem=mixed beam	!	!	!	!	!	!	!	!	!	!	!	!	!	!	!	!	!LO:N:vis=4	!	!	!	!	!
4BB-/	.	.	8B-/L	.	8b-\L	p	2r	.	1BB-	De-	1B-	de-	1d	de-	1b-	de-	1r	1ryy	1d	.	1b-	4.B-\	.	.	4b-\	.	4.bb-\
.	.	.	8d/	.	8f/	.	.	.	.	.	.	.	.	.	.	.	.	.	.	.	.	.	.	.	.	.	.
!	!	!	!	!	!	!	!	!	!	!	!	!	!	!	!	!	!	!	!	!	!	!	!	!	!LO:TX:a:t=e	!	!
4r	.	.	8B-/	.	8d/	.	.	.	.	.	.	.	.	.	.	.	.	.	.	.	.	.	.	.	4d/	.	.
.	.	.	8d/J	.	8f/J	.	.	.	.	.	.	.	.	.	.	.	.	.	.	.	.	8d\	.	.	.	.	8ddd\
*	*	*	*	*	*tremolo	*	*	*	*	*	*	*	*	*	*	*	*	*	*	*	*	*	*	*	*	*	*
4B-\	.	.	8B-/L	.	8d/L	.	8r	.	.	.	.	.	.	.	.	.	.	.	.	.	.	4F\	.	.	4f/	.	4ff\
.	.	.	8d/	.	8f/	.	8ff\L	.	.	.	.	.	.	.	.	.	.	.	.	.	.	.	.	.	.	.	.
4r	.	.	8B-/	.	8d/	.	8ff\	.	.	.	.	.	.	.	.	.	.	.	.	.	.	4r	.	.	4r	.	4r
.	.	.	8d/J	.	8f/J	.	8ff\J	.	.	.	.	.	.	.	.	.	.	.	.	.	.	.	.	.	.	.	.
!	!	!	!	!	!LO:LB:g=original	!	!	!	!	!	!	!	!	!	!	!	!	!	!	!	!	!	!	!	!	!	!
=58	=58	=58	=58	=58	=58	=58	=58	=58	=58	=58	=58	=58	=58	=58	=58	=58	=58	=58	=58	=58	=58	=58	=58	=58	=58	=58	=58
!	!	!	!	!	!	!	!	!	!	!	!	!	!	!	!	!	!	!	!	!	!	!LO:TX:a:t=1	!	!	!LO:TX:a:t=1	!	!LO:TX:a:t=1
4F\	.	.	8c/L	.	8e-/L	.	8ff\L	.	1F	-i	1f	-i	1e-	-i	1cc	-i	1r	1ryy	1f	.	1cc	1r	0r	.	1r	.	1r
.	.	.	8A/	.	8f/	.	8gg\	.	.	.	.	.	.	.	.	.	.	.	.	.	.	.	.	.	.	.	.
4r	.	.	8c/	.	8e-/	.	8aa\	.	.	.	.	.	.	.	.	.	.	.	.	.	.	.	.	.	.	.	.
.	.	.	8A/J	.	8f/J	.	8bb-\J	.	.	.	.	.	.	.	.	.	.	.	.	.	.	.	.	.	.	.	.
4FF/	.	.	8c/L	.	8e-/L	.	8ccc\L	.	.	.	.	.	.	.	.	.	.	.	.	.	.	.	.	.	.	.	.
.	.	.	8A/	.	8f/	.	8ddd\	.	.	.	.	.	.	.	.	.	.	.	.	.	.	.	.	.	.	.	.
4r	.	.	8c/	.	8e-/	.	8eee-\	.	.	.	.	.	.	.	.	.	.	.	.	.	.	.	.	.	.	.	.
.	.	.	8A/J	.	8f/J	.	8aa\J	.	.	.	.	.	.	.	.	.	.	.	.	.	.	.	.	.	.	.	.
!	!	!	!	!	!	!	!	!	!	!	!	!	!	!	!	!	!	!	!	!	!	!	!	!	!LO:LB:g=original	!	!LO:LB:g=original
=59	=59	=59	=59	=59	=59	=59	=59	=59	=59	=59	=59	=59	=59	=59	=59	=59	=59	=59	=59	=59	=59	=59	=59	=59	=59	=59	=59
4BB-/	.	.	8B-/L	.	8d/L	.	4.bb-\	.	1B-	pa-	1B-	pa-	1f	pa-	1dd	Pa-	1r	1ryy	1b-	.	1dd	2r	.	.	2r	.	2r
.	.	.	8d/	.	8f/	.	.	.	.	.	.	.	.	.	.	.	.	.	.	.	.	.	.	.	.	.	.
4r	.	.	8B-/	.	8d/	.	.	.	.	.	.	.	.	.	.	.	.	.	.	.	.	.	.	.	.	.	.
.	.	.	8d/J	.	8f/J	.	8ddd\	.	.	.	.	.	.	.	.	.	.	.	.	.	.	.	.	.	.	.	.
4B-\	.	.	8B-/L	.	8d/L	.	4fff\	.	.	.	.	.	.	.	.	.	.	.	.	.	.	8r	.	.	8r	.	8r
.	.	.	8d/	.	8f/	.	.	.	.	.	.	.	.	.	.	.	.	.	.	.	.	8F\L	.	.	8f/L	.	8ff\L
4r	.	.	8B-/	.	8d/	.	4r	.	.	.	.	.	.	.	.	.	.	.	.	.	.	8F\	.	.	8f/	.	8ff\
.	.	.	8d/J	.	8f/J	.	.	.	.	.	.	.	.	.	.	.	.	.	.	.	.	8F\J	.	.	8f/J	.	8ff\J
=60	=60	=60	=60	=60	=60	=60	=60	=60	=60	=60	=60	=60	=60	=60	=60	=60	=60	=60	=60	=60	=60	=60	=60	=60	=60	=60	=60
!	!	!	!	!	!	!	!LO:TX:a:t=1.	!	!	!	!	!	!	!	!	!	!	!	!	!	!	!	!	!	!	!	!
4F\	.	.	8c/L	.	8e-/L	.	1r	.	2F\	-tris	1f	-tris	2e-\	-tris	2cc\	-tris	1r	1ryy	1f	.	1cc	8F\L	1r	.	8f/L	.	8ff\L
.	.	.	8A/	.	8f/	.	.	.	.	.	.	.	.	.	.	.	.	.	.	.	.	8G\	.	.	8g/	.	8gg\
4r	.	.	8c/	.	8e-/	.	.	.	.	.	.	.	.	.	.	.	.	.	.	.	.	8A\	.	.	8a/	.	8aa\
.	.	.	8A/J	.	8f/J	.	.	.	.	.	.	.	.	.	.	.	.	.	.	.	.	8B-\J	.	.	8b-/J	.	8bb-\J
4FF/	.	.	8c/L	.	8e-/L	.	.	.	2F\	A-	.	.	2e-\	A-	2cc\	A-	.	.	.	.	.	8c\L	.	.	8cc\L	.	8ccc\L
.	.	.	8A/	.	8f/	.	.	.	.	.	.	.	.	.	.	.	.	.	.	.	.	8d\	.	.	8dd\	.	8ddd\
4r	.	.	8c/	.	8e-/	.	.	.	.	.	.	.	.	.	.	.	.	.	.	.	.	8e-\	.	.	8ee-\	.	8eee-\
.	.	.	8A/J	.	8f/J	.	.	.	.	.	.	.	.	.	.	.	.	.	.	.	.	8A\J	.	.	8a\J	.	8aa\J
*	*	*	*Xtremolo	*	*	*	*	*	*	*	*	*	*	*	*	*	*	*	*	*	*	*	*	*	*	*	*
!	!	!	!	!	!	!	!LO:LB:g=original	!	!	!	!	!	!	!	!	!	!LO:LB:g=original	!	!	!	!LO:LB:g=original	!LO:LB:g=original	!LO:LB:g=original	!	!	!	!
=61	=61	=61	=61	=61	=61	=61	=61	=61	=61	=61	=61	=61	=61	=61	=61	=61	=61	=61	=61	=61	=61	=61	=61	=61	=61	=61	=61
!	!	!LO:DY:b:t=for.	!	!	!	!LO:DY:b:t=fo.:rj	!	!	!	!	!	!	!	!	!	!	!	!	!	!	!	!	!	!	!	!	!
4BB-/	8	f	8B-\L	.	4d/	f	4r	.	4B-\	-men	2B-\	A-	4d\	-men	4b-\	-men	4r	4r	4B-/	.	4b-\	4d\	4r	.	4b-\	.	4bb-\
.	.	.	8B-\	.	.	.	.	.	.	.	.	.	.	.	.	.	.	.	.	.	.	.	.	.	.	.	.
*	*	*	*	*	*	*	*tremolo	*	*	*ij	*	*	*	*	*	*	*	*	*	*	*	*	*	*	*	*	*
!	!	!	!	!	!	!	!	!	!	!	!	!	!	!	!	!	!	!	!	!	!	!	!	!	!	!LO:DY:b:t=for	!
4A-X\	4	.	8a-X\	.	16b-\LL	.	16dd\LL	.	(4A-X\	a-	.	.	4b-\	a-	4dd\	a-	8Ra/L	8b-\L	4B-/	.	4b-\	4d\	4b-\	.	4dd\	f	4ddd\
.	.	.	.	.	16b-\	.	16dd\	.	.	.	.	.	.	.	.	.	.	.	.	.	.	.	.	.	.	.	.
.	.	.	8a-\J	.	16b-\	.	16dd\	.	.	.	.	.	.	.	.	.	8Ra/J	8b-\J	.	.	.	.	.	.	.	.	.
.	.	.	.	.	16b-\JJ	.	16dd\JJ	.	.	.	.	.	.	.	.	.	.	.	.	.	.	.	.	.	.	.	.
4G\	6	.	8g\L	.	16cc\LL	.	16ee-\LL	.	4G\)	.	2B-\	-men	4cc\	.	4ee-\	.	4Ra/	4b-\	4B-/	.	4b-\	4e-\	4cc\	.	4ee-\	.	4eee-\
.	.	.	.	.	16cc\	.	16ee-\	.	.	.	.	.	.	.	.	.	.	.	.	.	.	.	.	.	.	.	.
.	.	.	8g\	.	16cc\	.	16ee-\	.	.	.	.	.	.	.	.	.	.	.	.	.	.	.	.	.	.	.	.
.	.	.	.	.	16cc\JJ	.	16ee-\JJ	.	.	.	.	.	.	.	.	.	.	.	.	.	.	.	.	.	.	.	.
4F\	8	.	8f\	.	16dd\LL	.	16ff\LL	.	4F\	-men	.	.	4dd\	-men	4ff\	-men	4Ra/	4b-\	4B-/	.	4b-\	4f\	4dd\	.	4ff\	.	4fff\
.	.	.	.	.	16dd\	.	16ff\	.	.	.	.	.	.	.	.	.	.	.	.	.	.	.	.	.	.	.	.
.	.	.	8f\J	.	16dd\	.	16ff\	.	.	.	.	.	.	.	.	.	.	.	.	.	.	.	.	.	.	.	.
.	.	.	.	.	16dd\JJ	.	16ff\JJ	.	.	.	.	.	.	.	.	.	.	.	.	.	.	.	.	.	.	.	.
!	!	!	!	!	!	!	!	!	!	!	!	!	!LO:LB:g=original	!	!	!	!	!	!	!	!	!	!	!	!	!	!
=62	=62	=62	=62	=62	=62	=62	=62	=62	=62	=62	=62	=62	=62	=62	=62	=62	=62	=62	=62	=62	=62	=62	=62	=62	=62	=62	=62
*tremolo	*	*	*tremolo	*	*2\right	*	*	*	*	*	*	*	*	*	*	*	*	*	*	*	*	*	*	*	*	*	*
8E-\L	10	.	8e-\L	.	16ee-\LL	.	16gg\LL	.	2E-\	a-	2B-\	a-	2ee-\	A-	2gg\	a-	4Ra/	4b-\	2B-/	.	2b-\	2g\	2ee-\	.	2gg\	.	2ggg\
.	.	.	.	.	16ee-\	.	16gg\	.	.	.	.	.	.	.	.	.	.	.	.	.	.	.	.	.	.	.	.
8E-\	.	.	8e-\	.	16ee-\	.	16gg\	.	.	.	.	.	.	.	.	.	.	.	.	.	.	.	.	.	.	.	.
.	.	.	.	.	16ee-\	.	16gg\	.	.	.	.	.	.	.	.	.	.	.	.	.	.	.	.	.	.	.	.
8E-\	.	.	8e-\	.	16ee-\	.	16gg\	.	.	.	.	.	.	.	.	.	4r	4r	.	.	.	.	.	.	.	.	.
.	.	.	.	.	16ee-\	.	16gg\	.	.	.	.	.	.	.	.	.	.	.	.	.	.	.	.	.	.	.	.
8E-\J	.	.	8e-\J	.	16ee-\	.	16gg\	.	.	.	.	.	.	.	.	.	.	.	.	.	.	.	.	.	.	.	.
.	.	.	.	.	16ee-\JJ	.	16gg\JJ	.	.	.	.	.	.	.	.	.	.	.	.	.	.	.	.	.	.	.	.
8F\L	7	.	8f\L	.	16cc\LL	.	16aa\LL	.	2F\	-men	2c\	-men	2cc\	-men	2ee-\	-men	4Re/	4f/	2f\	.	2cc\	2e-\	2cc\	.	2aa\	.	2eee-\
.	.	.	.	.	16cc\	.	16aa\	.	.	.	.	.	.	.	.	.	.	.	.	.	.	.	.	.	.	.	.
8F\	.	.	8f\	.	16cc\	.	16aa\	.	.	.	.	.	.	.	.	.	.	.	.	.	.	.	.	.	.	.	.
.	.	.	.	.	16cc\	.	16aa\	.	.	.	.	.	.	.	.	.	.	.	.	.	.	.	.	.	.	.	.
8F\	.	.	8f\	.	16cc\	.	16aa\	.	.	.	.	.	.	.	.	.	4r	4r	.	.	.	.	.	.	.	.	.
.	.	.	.	.	16cc\	.	16aa\	.	.	.	.	.	.	.	.	.	.	.	.	.	.	.	.	.	.	.	.
8F\J	.	.	8f\J	.	16cc\	.	16aa\	.	.	.	.	.	.	.	.	.	.	.	.	.	.	.	.	.	.	.	.
.	.	.	.	.	16cc\JJ	.	16aa\JJ	.	.	.	.	.	.	.	.	.	.	.	.	.	.	.	.	.	.	.	.
!	!	!	!	!	!LO:LB:g=original	!	!	!	!	!	!	!	!	!	!	!	!	!	!	!	!	!	!	!	!	!	!
=63	=63	=63	=63	=63	=63	=63	=63	=63	=63	=63	=63	=63	=63	=63	=63	=63	=63	=63	=63	=63	=63	=63	=63	=63	=63	=63	=63
*	*	*	*	*	*	*	*	*	*	*	*	*	*	*ij	*	*	*	*	*	*	*	*	*	*	*	*	*
8B-\L	3	.	8b-\L	.	16dd\LL	.	16bb-\LL	.	2B-\	a-	2B-\	A-	2b-\	A-	2dd\	A-	4Ra/	4r	2b-\	.	2dd\	2d\	2dd\	.	2bb-\	.	2ddd\
.	.	.	.	.	16dd\	.	16bb-\	.	.	.	.	.	.	.	.	.	.	.	.	.	.	.	.	.	.	.	.
8B-\	.	.	8b-\	.	16dd\	.	16bb-\	.	.	.	.	.	.	.	.	.	.	.	.	.	.	.	.	.	.	.	.
.	.	.	.	.	16dd\	.	16bb-\	.	.	.	.	.	.	.	.	.	.	.	.	.	.	.	.	.	.	.	.
8B-\	.	.	8b-\	.	16dd\	.	16bb-\	.	.	.	.	.	.	.	.	.	4r	4b-\	.	.	.	.	.	.	.	.	.
.	.	.	.	.	16dd\	.	16bb-\	.	.	.	.	.	.	.	.	.	.	.	.	.	.	.	.	.	.	.	.
8B-\J	.	.	8b-\J	.	16dd\	.	16bb-\	.	.	.	.	.	.	.	.	.	.	.	.	.	.	.	.	.	.	.	.
.	.	.	.	.	16dd\JJ	.	16bb-\JJ	.	.	.	.	.	.	.	.	.	.	.	.	.	.	.	.	.	.	.	.
8G\L	5	.	8g\L	.	16dd\LL	.	16bb-\LL	.	2G\	-men	2B-\	-men	2b-\	-men	2dd\	-men	4Ra/	4r	2b-\	.	2dd\	2d\	2dd\	.	2bb-\	.	2ddd\
.	.	.	.	.	16dd\	.	16bb-\	.	.	.	.	.	.	.	.	.	.	.	.	.	.	.	.	.	.	.	.
8G\	.	.	8g\	.	16dd\	.	16bb-\	.	.	.	.	.	.	.	.	.	.	.	.	.	.	.	.	.	.	.	.
.	.	.	.	.	16dd\	.	16bb-\	.	.	.	.	.	.	.	.	.	.	.	.	.	.	.	.	.	.	.	.
8G\	.	.	8g\	.	16dd\	.	16bb-\	.	.	.	.	.	.	.	.	.	4r	4b-\	.	.	.	.	.	.	.	.	.
.	.	.	.	.	16dd\	.	16bb-\	.	.	.	.	.	.	.	.	.	.	.	.	.	.	.	.	.	.	.	.
8G\J	.	.	8g\J	.	16dd\	.	16bb-\	.	.	.	.	.	.	.	.	.	.	.	.	.	.	.	.	.	.	.	.
.	.	.	.	.	16dd\JJ	.	16bb-\JJ	.	.	.	.	.	.	.	.	.	.	.	.	.	.	.	.	.	.	.	.
=64	=64	=64	=64	=64	=64	=64	=64	=64	=64	=64	=64	=64	=64	=64	=64	=64	=64	=64	=64	=64	=64	=64	=64	=64	=64	=64	=64
!	!	!	!	!	!	!	!	!	!	!	!	!	!	!	!	!	!	!LO:TX:t=P:problem=t.64-65 zapisane jako repetycja	!	!	!	!	!LO:TX:a:t=bis	!	!	!	!
8E-\L	7	.	8e-\L	.	16dd\LL	.	16bb-\LL	.	2E-\	a-	2B-\	a-	2b-\	A-	2dd\	a-	4Ra/	4b-\	2b-\	.	2dd\	2d\	2dd\	.	2bb-\	.	2ddd\
.	.	.	.	.	16dd\	.	16bb-\	.	.	.	.	.	.	.	.	.	.	.	.	.	.	.	.	.	.	.	.
8E-\	.	.	8e-\	.	16dd\	.	16bb-\	.	.	.	.	.	.	.	.	.	.	.	.	.	.	.	.	.	.	.	.
.	.	.	.	.	16dd\	.	16bb-\	.	.	.	.	.	.	.	.	.	.	.	.	.	.	.	.	.	.	.	.
8E-\	.	.	8e-\	.	16dd\	.	16bb-\	.	.	.	.	.	.	.	.	.	4r	4r	.	.	.	.	.	.	.	.	.
.	.	.	.	.	16dd\	.	16bb-\	.	.	.	.	.	.	.	.	.	.	.	.	.	.	.	.	.	.	.	.
8E-\J	.	.	8e-\J	.	16dd\	.	16bb-\	.	.	.	.	.	.	.	.	.	.	.	.	.	.	.	.	.	.	.	.
.	.	.	.	.	16dd\JJ	.	16bb-\JJ	.	.	.	.	.	.	.	.	.	.	.	.	.	.	.	.	.	.	.	.
8F\L	5	.	8f\L	.	16cc\LL	.	16aa\LL	.	2F\	-men	2c\	-men	2a\	-men	2cc\	-men	4Re/	4f/	2f/	.	2cc\	2c\	2cc\	.	2aa\	.	2ccc\
.	.	.	.	.	16cc\	.	16aa\	.	.	.	.	.	.	.	.	.	.	.	.	.	.	.	.	.	.	.	.
8F\	.	.	8f\	.	16cc\	.	16aa\	.	.	.	.	.	.	.	.	.	.	.	.	.	.	.	.	.	.	.	.
.	.	.	.	.	16cc\	.	16aa\	.	.	.	.	.	.	.	.	.	.	.	.	.	.	.	.	.	.	.	.
8F\	.	.	8f\	.	16cc\	.	16aa\	.	.	.	.	.	.	.	.	.	4r	4r	.	.	.	.	.	.	.	.	.
.	.	.	.	.	16cc\	.	16aa\	.	.	.	.	.	.	.	.	.	.	.	.	.	.	.	.	.	.	.	.
8F\J	.	.	8f\J	.	16cc\	.	16aa\	.	.	.	.	.	.	.	.	.	.	.	.	.	.	.	.	.	.	.	.
.	.	.	.	.	16cc\JJ	.	16aa\JJ	.	.	.	.	.	.	.	.	.	.	.	.	.	.	.	.	.	.	.	.
!LO:LB:g=original	!	!	!	!	!	!	!	!	!	!	!	!	!	!	!	!	!	!	!	!	!	!	!	!	!	!	!
=65	=65	=65	=65	=65	=65	=65	=65	=65	=65	=65	=65	=65	=65	=65	=65	=65	=65	=65	=65	=65	=65	=65	=65	=65	=65	=65	=65
!	!	!	!	!	!	!	!	!	!	!	!	!	!	!	!	!	!	!	!	!	!	!	!LO:TX:t=P:problem=t. 65-66 zapisane jako repetycja	!	!	!	!
8B-\L	3	.	8b-\L	.	16dd\LL	.	16bb-\LL	.	2B-\	a-	2B-\	a-	2b-\	A-	2dd\	a-	4Ra/	4r	2b-\	.	2dd\	2d\	2dd\	.	2bb-\	.	2ddd\
.	.	.	.	.	16dd\	.	16bb-\	.	.	.	.	.	.	.	.	.	.	.	.	.	.	.	.	.	.	.	.
8B-\	.	.	8b-\	.	16dd\	.	16bb-\	.	.	.	.	.	.	.	.	.	.	.	.	.	.	.	.	.	.	.	.
.	.	.	.	.	16dd\	.	16bb-\	.	.	.	.	.	.	.	.	.	.	.	.	.	.	.	.	.	.	.	.
8B-\	.	.	8b-\	.	16dd\	.	16bb-\	.	.	.	.	.	.	.	.	.	4r	4b-\	.	.	.	.	.	.	.	.	.
.	.	.	.	.	16dd\	.	16bb-\	.	.	.	.	.	.	.	.	.	.	.	.	.	.	.	.	.	.	.	.
8B-\J	.	.	8b-\J	.	16dd\	.	16bb-\	.	.	.	.	.	.	.	.	.	.	.	.	.	.	.	.	.	.	.	.
.	.	.	.	.	16dd\JJ	.	16bb-\JJ	.	.	.	.	.	.	.	.	.	.	.	.	.	.	.	.	.	.	.	.
8G\L	5	.	8g\L	.	16dd\LL	.	16bb-\LL	.	2G\	-men	2B-\	-men	2b-\	-men	2dd\	-men	4Ra/	4r	2b-\	.	2dd\	2d\	2dd\	.	2bb-\	.	2ddd\
*	*	*	*	*	*	*	*	*	*	*Xij	*	*	*	*	*	*	*	*	*	*	*	*	*	*	*	*	*
.	.	.	.	.	16dd\	.	16bb-\	.	.	.	.	.	.	.	.	.	.	.	.	.	.	.	.	.	.	.	.
8G\	.	.	8g\	.	16dd\	.	16bb-\	.	.	.	.	.	.	.	.	.	.	.	.	.	.	.	.	.	.	.	.
.	.	.	.	.	16dd\	.	16bb-\	.	.	.	.	.	.	.	.	.	.	.	.	.	.	.	.	.	.	.	.
8G\	.	.	8g\	.	16dd\	.	16bb-\	.	.	.	.	.	.	.	.	.	4r	4b-\	.	.	.	.	.	.	.	.	.
.	.	.	.	.	16dd\	.	16bb-\	.	.	.	.	.	.	.	.	.	.	.	.	.	.	.	.	.	.	.	.
8G\J	.	.	8g\J	.	16dd\	.	16bb-\	.	.	.	.	.	.	.	.	.	.	.	.	.	.	.	.	.	.	.	.
.	.	.	.	.	16dd\JJ	.	16bb-\JJ	.	.	.	.	.	.	.	.	.	.	.	.	.	.	.	.	.	.	.	.
!	!	!	!	!	!	!	!	!	!LO:LB:g=original	!	!	!	!	!	!LO:LB:g=original	!	!	!	!LO:LB:g=original	!	!	!	!	!	!	!	!
=66	=66	=66	=66	=66	=66	=66	=66	=66	=66	=66	=66	=66	=66	=66	=66	=66	=66	=66	=66	=66	=66	=66	=66	=66	=66	=66	=66
8E-\L	7	.	8e-\L	.	16dd\LL	.	16bb-\LL	.	2E-\	A-	2B-\	A-	2b-\	A-	2dd\	a-	4Ra/	4b-\	2b-\	.	2dd\	2d\	2dd\	.	2bb-\	.	2ddd\
.	.	.	.	.	16dd\	.	16bb-\	.	.	.	.	.	.	.	.	.	.	.	.	.	.	.	.	.	.	.	.
8E-\	.	.	8e-\	.	16dd\	.	16bb-\	.	.	.	.	.	.	.	.	.	.	.	.	.	.	.	.	.	.	.	.
.	.	.	.	.	16dd\	.	16bb-\	.	.	.	.	.	.	.	.	.	.	.	.	.	.	.	.	.	.	.	.
8E-\	.	.	8e-\	.	16dd\	.	16bb-\	.	.	.	.	.	.	.	.	.	4r	4r	.	.	.	.	.	.	.	.	.
.	.	.	.	.	16dd\	.	16bb-\	.	.	.	.	.	.	.	.	.	.	.	.	.	.	.	.	.	.	.	.
8E-\J	.	.	8e-\J	.	16dd\	.	16bb-\	.	.	.	.	.	.	.	.	.	.	.	.	.	.	.	.	.	.	.	.
.	.	.	.	.	16dd\JJ	.	16bb-\JJ	.	.	.	.	.	.	.	.	.	.	.	.	.	.	.	.	.	.	.	.
8F\L	5	.	8f\L	.	16cc\LL	.	16aa\LL	.	2F\	-men	2c\	-men	2a\	-men	2cc\	-men	4Re/	4f/	2f/	.	2cc\	2c\	2cc\	.	2aa\	.	2ccc\
*	*	*	*	*	*	*	*	*	*	*	*	*	*	*Xij	*	*	*	*	*	*	*	*	*	*	*	*	*
.	.	.	.	.	16cc\	.	16aa\	.	.	.	.	.	.	.	.	.	.	.	.	.	.	.	.	.	.	.	.
8F\	.	.	8f\	.	16cc\	.	16aa\	.	.	.	.	.	.	.	.	.	.	.	.	.	.	.	.	.	.	.	.
.	.	.	.	.	16cc\	.	16aa\	.	.	.	.	.	.	.	.	.	.	.	.	.	.	.	.	.	.	.	.
8F\	.	.	8f\	.	16cc\	.	16aa\	.	.	.	.	.	.	.	.	.	4r	4r	.	.	.	.	.	.	.	.	.
.	.	.	.	.	16cc\	.	16aa\	.	.	.	.	.	.	.	.	.	.	.	.	.	.	.	.	.	.	.	.
8F\J	.	.	8f\J	.	16cc\	.	16aa\	.	.	.	.	.	.	.	.	.	.	.	.	.	.	.	.	.	.	.	.
.	.	.	.	.	16cc\JJ	.	16aa\JJ	.	.	.	.	.	.	.	.	.	.	.	.	.	.	.	.	.	.	.	.
*Xtremolo	*	*	*Xtremolo	*	*Xtremolo	*	*Xtremolo	*	*	*	*	*	*	*	*	*	*	*	*	*	*	*	*	*	*	*	*
=67	=67	=67	=67	=67	=67	=67	=67	=67	=67	=67	=67	=67	=67	=67	=67	=67	=67	=67	=67	=67	=67	=67	=67	=67	=67	=67	=67
*	*	*	*	*	*	*	*	*	*	*ij	*	*	*	*	*	*	*	*	*	*	*	*	*	*	*	*	*
4r	.	.	4r	.	4r	.	16bb-\LL	.	4B-\	A-	4B-\	a-	4d\	a-	4b-\	A-	4r	4b-\	4d/	.	4b-\	4d\	4dd\	.	4bb-\	.	4ddd\
.	.	.	.	.	.	.	16ccc\J	.	.	.	.	.	.	.	.	.	.	.	.	.	.	.	.	.	.	.	.
.	.	.	.	.	.	.	8ddd\J	.	.	.	.	.	.	.	.	.	.	.	.	.	.	.	.	.	.	.	.
4B-\	5 3	.	4f\	.	4B-/ 4f 4dd	.	16bb-\LL	.	4B-\	-men	4B-\	-men	4d\	-men	4b-\	-men	4Ra/	8b-\L	8d/L	.	8b-\L	8d\L	8dd\L	.	8bb-\L	.	8ddd\L
.	.	.	.	.	.	.	16ccc\J	.	.	.	.	.	.	.	.	.	.	.	.	.	.	.	.	.	.	.	.
!	!	!	!	!	!	!	!	!	!	!	!	!	!	!	!	!	!	!	!	!	!	!LO:TX:a:t=bis	!	!	!	!	!
.	.	.	.	.	.	.	8ddd\J	.	.	.	.	.	.	.	.	.	.	8b-\J	8d/J	.	8b-\J	8d\J	8dd\J	.	8bb-\J	.	8ddd\J
*	*	*	*	*	*	*	*	*	*	*	*	*	*	*ij	*	*	*	*	*	*	*	*	*	*	*	*	*
4r	.	.	4r	.	4r	.	16ff\LL	.	4F\	A-	4f\	a-	4e-\	a-	4cc\	a-	4r	4f/	4f/	.	4cc\	4c\	4cc\	.	4aa\	.	4ccc\
.	.	.	.	.	.	.	16gg\J	.	.	.	.	.	.	.	.	.	.	.	.	.	.	.	.	.	.	.	.
.	.	.	.	.	.	.	8aa\J	.	.	.	.	.	.	.	.	.	.	.	.	.	.	.	.	.	.	.	.
!	!	!	!	!	!	!	!LO:LB:g=original	!	!	!	!	!	!	!	!	!	!	!	!	!	!	!	!	!	!	!	!
=-	=-	=-	=-	=-	=-	=-	=-	=-	=-	=-	=-	=-	=-	=-	=-	=-	=-	=-	=-	=-	=-	=-	=-	=-	=-	=-	=-
4F\	5 3	.	4f\	.	4A/ 4f 4cc	.	16ff\LL	.	4F\	-men	4f\	-men	4e-\	-men	4cc\	-men	4Re/	8f/L	8f/L	.	8cc\L	8c\L	8cc\L	.	8aa\L	.	8ccc\L
.	.	.	.	.	.	.	16gg\J	.	.	.	.	.	.	.	.	.	.	.	.	.	.	.	.	.	.	.	.
.	.	.	.	.	.	.	8aa\J	.	.	.	.	.	.	.	.	.	.	8f/J	8f/J	.	8cc\J	8c\J	8cc\J	.	8aa\J	.	8ccc\J
!	!	!	!LO:LB:g=original	!	!	!	!	!	!	!	!LO:LB:g=original	!	!	!	!	!	!	!	!	!	!	!	!	!	!	!	!
=68	=68	=68	=68	=68	=68	=68	=68	=68	=68	=68	=68	=68	=68	=68	=68	=68	=68	=68	=68	=68	=68	=68	=68	=68	=68	=68	=68
!	!	!	!	!	!	!	!	!	!	!	!	!	!	!	!	!	!	!	!LO:TX:t=P:problem=t. 68 zapisany jako repetycja	!	!LO:TX:t=P:problem=t. 68 zapisany jako repetycja	!LO:TX:t=P:problem=t. 68 zapisany jako repetycja	!	!	!	!	!
4r	.	.	4r	.	4r	.	16bb-\LL	.	4B-\	A-	4B-\	a-	4f\	a-	4dd\	a-	4r	4b-\	4d/	.	4b-\	4d\	4dd\	.	4bb-\	.	4ddd\
.	.	.	.	.	.	.	16ccc\J	.	.	.	.	.	.	.	.	.	.	.	.	.	.	.	.	.	.	.	.
.	.	.	.	.	.	.	8ddd\J	.	.	.	.	.	.	.	.	.	.	.	.	.	.	.	.	.	.	.	.
4B-\	5 3	.	4f\	.	4B-/ 4f 4dd	.	16bb-\LL	.	4B-\	-men	4B-\	-men	4f\	-men	4dd\	-men	4Ra/	8b-\L	8d/L	.	8b-\L	8d\L	8dd\L	.	8bb-\L	.	8ddd\L
*	*	*	*	*	*	*	*	*	*	*Xij	*	*	*	*	*	*	*	*	*	*	*	*	*	*	*	*	*
.	.	.	.	.	.	.	16ccc\J	.	.	.	.	.	.	.	.	.	.	.	.	.	.	.	.	.	.	.	.
.	.	.	.	.	.	.	8ddd\J	.	.	.	.	.	.	.	.	.	.	8b-\J	8d/J	.	8b-\J	8d\J	8dd\J	.	8bb-\J	.	8ddd\J
!	!	!	!	!	!	!	!	!	!	!	!	!	!	!	!	!	!	!	!	!	!	!	!	!	!LO:LB:g=original	!	!
=-	=-	=-	=-	=-	=-	=-	=-	=-	=-	=-	=-	=-	=-	=-	=-	=-	=-	=-	=-	=-	=-	=-	=-	=-	=-	=-	=-
4r	.	.	4r	.	4r	.	16ff\LL	.	2F\	a-	2f\	A-	2e-\	a-	2cc\	a-	4r	4f/	4f/	.	4cc\	4c\	4cc\	.	4aa\	.	4ccc\
.	.	.	.	.	.	.	16gg\J	.	.	.	.	.	.	.	.	.	.	.	.	.	.	.	.	.	.	.	.
.	.	.	.	.	.	.	8aa\J	.	.	.	.	.	.	.	.	.	.	.	.	.	.	.	.	.	.	.	.
4F\	5 3	.	4f\	.	4A/ 4f 4cc	.	16ff\LL	.	.	.	.	.	.	.	.	.	4Re/	8f/L	8f/L	.	8cc\L	8c\L	8cc\L	.	8aa\L	.	8ccc\L
.	.	.	.	.	.	.	16gg\J	.	.	.	.	.	.	.	.	.	.	.	.	.	.	.	.	.	.	.	.
.	.	.	.	.	.	.	8aa\J	.	.	.	.	.	.	.	.	.	.	8f/J	8f/J	.	8cc\J	8c\J	8cc\J	.	8aa\J	.	8ccc\J
!	!	!	!	!	!LO:LB:g=original	!	!	!	!	!	!	!	!	!	!	!	!	!	!	!	!	!	!LO:LB:g=original	!	!	!	!
=69	=69	=69	=69	=69	=69	=69	=69	=69	=69	=69	=69	=69	=69	=69	=69	=69	=69	=69	=69	=69	=69	=69	=69	=69	=69	=69	=69
4BB-/	8 5 3	.	4B-/ 4f	.	4B-/ 4f 4dd	.	4bb-\	.	4BB-/	-men.	4f\	-men.	4d\	-men	4b-\	-men	4Ra/	4b-\	4d/	.	4b-\	4d\	4dd\	.	4bb-\	.	4bb-\
*	*	*	*	*	*	*	*	*	*	*	*	*	*	*Xij	*	*	*	*	*	*	*	*	*	*	*	*	*
4r	.	.	4r	.	4r	.	4r	.	4r	.	4r	.	4r	.	4r	.	4r	4r	4r	.	4r	4r	4r	.	4r	.	4r
4BB-/	8 5 3	.	4B-/ 4f	.	4B-/ 4f 4dd	.	4f\ 4dd 4bb-	.	2r	.	2r	.	2r	.	2r	.	4Ra/	4b-\	4d\	.	4b-\	4d\	4dd\	.	4bb-\	.	4bb-\
4BB-/	8 5 3	.	4B-/ 4f	.	4B-/ 4f 4dd	.	4f\ 4dd 4bb-	.	.	.	.	.	.	.	.	.	4Ra/	4b-\	4d\	.	4b-\	4d\	4dd\	.	4bb-\	.	4bb-\
=70	=70	=70	=70	=70	=70	=70	=70	=70	=70	=70	=70	=70	=70	=70	=70	=70	=70	=70	=70	=70	=70	=70	=70	=70	=70	=70	=70
!	!	!	!	!	!	!	!	!	!LO:TX:a:t=1.	!	!LO:TX:a:t=1	!	!LO:TX:a:t=1.	!	!LO:TX:a:t=1.	!	!	!LO:N:vis=1	!	!	!LO:TX:a:t=c	!	!	!	!	!	!
2BB-/	8 5 3	.	2B-/ 2f	.	2B-/ 2f 2dd	.	2f\ 2dd 2bb-	.	1r	.	1r	.	1r	.	1r	.	2Ra/	2b-\	2d/	.	2b-\	2d\	2dd\	.	2bb-\	.	2bb-\
!	!	!	!	!	!LO:TX:b:i:t=Credo Segitur	!	!LO:TX:a:t=Seque.	!	!	!	!	!	!	!	!	!	!	!	!	!	!	!LO:TX:b:i:t=Verte. Subito.	!	!	!	!	!
2r	.	.	2r	.	2r	.	2r	.	.	.	.	.	.	.	.	.	2r	2r	2r	.	2r	2r	2r	.	4r	.	2r
.	.	.	.	.	.	.	.	.	.	.	.	.	.	.	.	.	.	.	.	.	.	.	.	.	4r	.	.
==	==	==	==	==	==	==	==	==	==	==	==;	==	==	==	==;	==	==;	==	==;	==	==	==	==	==	==	==	==
*-	*-	*-	*-	*-	*-	*-	*-	*-	*-	*-	*-	*-	*-	*-	*-	*-	*-	*-	*-	*-	*-	*-	*-	*-	*-	*-	*-
!!!system-decoration: [(s1,s2,s3,s4)][(s5,s6,s7)](s8)[(s9,s10,s11,s12)][(s13,s14,s15)](s16)
!!!RDF**kern: < = below
!!!RDF**kern: > = above
!!!ENC: Marcin Jachim
!!!END: 2020-10-14
!!!ENC: Marta Chmielewska
!!!END: 2022-01-18
